;FLAVOR:Marlin
;TIME:12709
;Filament used: 10.3767m
;Layer height: 0.2
;MINX:48.608
;MINY:48.614
;MINZ:0.3
;MAXX:161.392
;MAXY:161.386
;MAXZ:13.175
;Generated with Cura_SteamEngine 4.12.1
M82 ;absolute extrusion mode
G21                                        ; metric values 
G90                                        ; absolute positioning 
M82                                        ; set extruder to absolute mode 
M107                                       ; start with the fan off 
M140 S60           ; Start heating the bed 
G4 S60                                     ; wait 1 minute 
M104 S210         ; start heating the hot end 
M190 S60           ; wait for bed 
M109 S210         ; wait for hotend 
M300 S1000 P500                            ; BEEP heating done 
G28 X0 Y10 Z0                              ; move X/Y to min endstops 
M420 S1                                    ; Enable leveling 
M420 Z2.0                                  ; Set leveling fading height to 2 mm 
G0 Z0.15                                   ; lift nozzle a bit 
G92 E0                                     ; zero the extruded length 
G1 X50 E25 F500                            ; Extrude 25mm of filament in a 5cm line. 
G92 E0                                     ; zero the extruded length again 
G1 E-2 F500                                ; Retract a little 
G1 X120 F4000                              ; Quickly wipe away from the filament line`
G92 E0
G92 E0
G1 F1500 E-6
;LAYER_COUNT:65
;LAYER:0
M106 S76.5
M205 X10 Y10
G1 F600 Z0.375
G0 F6000 X65.045 Y65.211 Z0.375
M205 X8 Y8
;TYPE:SKIRT
G1 F600 Z0.3
G1 F1500 E0
G1 F1200 X65.736 Y64.524 E0.04861
G1 X66.06 Y64.214 E0.07098
G1 X66.96 Y63.375 E0.13237
G1 X67.753 Y62.658 E0.18571
G1 X67.998 Y62.446 E0.20187
G1 X68.951 Y61.639 E0.26417
G1 X69.698 Y61.023 E0.31248
G1 X69.858 Y60.896 E0.32267
G1 X71.027 Y59.994 E0.39633
G1 X71.788 Y59.424 E0.44377
G1 X71.955 Y59.303 E0.45406
G1 X73.156 Y58.463 E0.52718
G1 X74.065 Y57.85 E0.58188
G1 X74.39 Y57.641 E0.60115
G1 X75.37 Y57.023 E0.65896
G1 X76.187 Y56.524 E0.70672
G1 X76.623 Y56.271 E0.73187
G1 X77.685 Y55.67 E0.79275
G1 X78.517 Y55.214 E0.84008
G1 X78.691 Y55.122 E0.8499
G1 X80.028 Y54.442 E0.92473
G1 X80.962 Y53.987 E0.97657
G1 X81.277 Y53.842 E0.99387
G1 X82.47 Y53.307 E1.0591
G1 X83.255 Y52.968 E1.10176
G1 X83.672 Y52.798 E1.12422
G1 X84.866 Y52.329 E1.18822
G1 X85.73 Y52.002 E1.23431
G1 X86.17 Y51.846 E1.2576
G1 X87.321 Y51.455 E1.31825
G1 X88.391 Y51.109 E1.37435
G1 X88.696 Y51.018 E1.39023
G1 X89.904 Y50.67 E1.45295
G1 X90.927 Y50.392 E1.50584
G1 X91.209 Y50.322 E1.52034
G1 X92.455 Y50.025 E1.58424
G1 X93.366 Y49.82 E1.63083
G1 X93.568 Y49.778 E1.64112
G1 X95.082 Y49.489 E1.71802
G1 X96.079 Y49.317 E1.76849
G1 X96.392 Y49.27 E1.78428
G1 X97.628 Y49.096 E1.84656
G1 X98.595 Y48.972 E1.8952
G1 X98.807 Y48.948 E1.90584
G1 X100.275 Y48.81 E1.9794
G1 X101.24 Y48.733 E2.0277
G1 X101.444 Y48.72 E2.0379
G1 X102.918 Y48.651 E2.11152
G1 X104.007 Y48.616 E2.16587
G1 X104.247 Y48.614 E2.17785
G1 X105.465 Y48.614 E2.23861
G1 X106.486 Y48.628 E2.28956
G1 X106.972 Y48.645 E2.31382
G1 X108.187 Y48.702 E2.3745
G1 X109.286 Y48.771 E2.42944
G1 X109.585 Y48.796 E2.44441
G1 X110.841 Y48.915 E2.50735
G1 X111.924 Y49.034 E2.56171
G1 X112.2 Y49.071 E2.5756
G1 X113.47 Y49.252 E2.6396
G1 X114.522 Y49.417 E2.69273
G1 X114.829 Y49.473 E2.7083
G1 X116.061 Y49.708 E2.77087
G1 X117.121 Y49.926 E2.82486
G1 X117.386 Y49.986 E2.83841
G1 X118.666 Y50.293 E2.90409
G1 X119.691 Y50.555 E2.95687
G1 X119.992 Y50.639 E2.97246
G1 X121.169 Y50.98 E3.03359
G1 X122.085 Y51.258 E3.08135
G1 X122.538 Y51.406 E3.10513
G1 X123.689 Y51.799 E3.16581
G1 X124.59 Y52.12 E3.21352
G1 X124.771 Y52.188 E3.22317
G1 X126.159 Y52.731 E3.29753
G1 X127.089 Y53.113 E3.34769
G1 X127.276 Y53.193 E3.35784
G1 X128.602 Y53.789 E3.43037
G1 X129.553 Y54.235 E3.48277
G1 X129.903 Y54.407 E3.50223
G1 X130.991 Y54.959 E3.56309
G1 X131.801 Y55.384 E3.60873
G1 X132.226 Y55.618 E3.63293
G1 X133.258 Y56.204 E3.69214
G1 X134.12 Y56.709 E3.74198
G1 X134.516 Y56.952 E3.76516
G1 X135.53 Y57.593 E3.82501
G1 X136.343 Y58.12 E3.87335
G1 X136.52 Y58.238 E3.88396
G1 X137.753 Y59.098 E3.95896
G1 X138.599 Y59.709 E4.01103
G1 X138.887 Y59.927 E4.02905
G1 X139.87 Y60.685 E4.09097
G1 X140.678 Y61.328 E4.14249
G1 X140.925 Y61.532 E4.15848
G1 X141.883 Y62.346 E4.22119
G1 X142.595 Y62.968 E4.26836
G1 X142.978 Y63.318 E4.29425
G1 X143.847 Y64.129 E4.35355
G1 X144.547 Y64.801 E4.40196
G1 X144.829 Y65.081 E4.42178
G1 X145.7 Y65.972 E4.48395
G1 X146.487 Y66.804 E4.54108
G1 X146.692 Y67.031 E4.55634
G1 X147.486 Y67.925 E4.616
G1 X148.133 Y68.674 E4.66538
G1 X148.428 Y69.029 E4.6884
G1 X149.166 Y69.943 E4.74701
G1 X149.783 Y70.727 E4.79679
G1 X149.913 Y70.897 E4.80746
G1 X150.782 Y72.082 E4.88078
G1 X151.339 Y72.864 E4.92868
G1 X151.61 Y73.262 E4.9527
G1 X152.265 Y74.25 E5.01184
G1 X152.872 Y75.193 E5.06779
G1 X152.995 Y75.395 E5.07959
G1 X153.694 Y76.564 E5.14754
G1 X154.204 Y77.448 E5.19846
G1 X154.355 Y77.723 E5.21411
G1 X154.95 Y78.832 E5.2769
G1 X155.407 Y79.715 E5.3265
G1 X155.499 Y79.9 E5.33681
G1 X156.116 Y81.195 E5.40837
G1 X156.588 Y82.223 E5.46481
G1 X157.19 Y83.651 E5.54212
G1 X157.579 Y84.616 E5.59403
G1 X157.702 Y84.943 E5.61146
G1 X158.125 Y86.096 E5.67274
G1 X158.438 Y86.985 E5.71976
G1 X158.504 Y87.184 E5.73022
G1 X158.949 Y88.595 E5.80403
G1 X159.264 Y89.653 E5.8591
G1 X159.339 Y89.925 E5.87318
G1 X159.661 Y91.152 E5.93647
G1 X159.919 Y92.199 E5.99027
G1 X160.005 Y92.579 E6.0097
G1 X160.239 Y93.677 E6.06571
G1 X160.468 Y94.827 E6.12421
G1 X160.504 Y95.031 E6.13455
G1 X160.722 Y96.356 E6.20154
G1 X160.855 Y97.234 E6.24584
G1 X160.926 Y97.786 E6.27361
G1 X161.061 Y98.938 E6.33148
G1 X161.162 Y99.913 E6.38038
G1 X161.196 Y100.323 E6.40091
G1 X161.285 Y101.591 E6.46432
G1 X161.344 Y102.668 E6.51813
G1 X161.355 Y103.028 E6.5361
G1 X161.384 Y104.244 E6.59679
G1 X161.392 Y105.14 E6.64149
G1 X161.385 Y105.705 E6.66968
G1 X161.358 Y106.832 E6.72592
G1 X161.313 Y107.998 E6.78414
G1 X161.299 Y108.223 E6.79539
G1 X161.205 Y109.548 E6.86166
G1 X161.117 Y110.56 E6.91234
G1 X161.072 Y110.979 E6.93336
G1 X160.94 Y112.086 E6.98898
G1 X160.804 Y113.121 E7.04106
G1 X160.774 Y113.329 E7.05154
G1 X160.535 Y114.774 E7.12461
G1 X160.37 Y115.69 E7.17105
G1 X160.283 Y116.123 E7.19308
G1 X160.037 Y117.274 E7.2518
G1 X159.804 Y118.293 E7.30395
G1 X159.754 Y118.5 E7.31458
G1 X159.367 Y119.966 E7.39022
G1 X159.134 Y120.801 E7.43347
G1 X159.078 Y120.989 E7.44326
G1 X158.627 Y122.43 E7.51859
G1 X158.322 Y123.355 E7.56718
G1 X158.255 Y123.548 E7.57738
G1 X157.744 Y124.945 E7.65159
G1 X157.358 Y125.945 E7.70507
G1 X157.261 Y126.185 E7.71798
G1 X156.735 Y127.43 E7.78541
G1 X156.313 Y128.39 E7.83773
G1 X156.205 Y128.621 E7.85045
G1 X155.645 Y129.793 E7.91525
G1 X155.216 Y130.659 E7.96347
G1 X155.02 Y131.035 E7.98462
G1 X154.424 Y132.146 E8.04752
G1 X153.97 Y132.966 E8.09428
G1 X153.866 Y133.147 E8.1047
G1 X153.107 Y134.416 E8.17847
G1 X152.597 Y135.243 E8.22694
G1 X152.485 Y135.419 E8.23735
G1 X151.676 Y136.638 E8.31034
G1 X151.047 Y137.554 E8.36578
G1 X150.846 Y137.831 E8.38285
G1 X150.146 Y138.785 E8.44189
G1 X149.575 Y139.541 E8.48915
G1 X149.243 Y139.962 E8.5159
G1 X148.5 Y140.88 E8.57482
G1 X147.899 Y141.603 E8.62173
G1 X147.598 Y141.949 E8.64461
G1 X146.758 Y142.894 E8.70769
G1 X146.044 Y143.673 E8.76041
G1 X145.808 Y143.917 E8.77734
G1 X144.955 Y144.789 E8.8382
G1 X144.264 Y145.476 E8.88681
G1 X143.94 Y145.786 E8.90918
G1 X143.038 Y146.627 E8.97071
G1 X142.247 Y147.342 E9.02391
G1 X142.002 Y147.554 E9.04007
G1 X141.049 Y148.36 E9.10234
G1 X140.301 Y148.977 E9.15072
G1 X140.141 Y149.106 E9.16097
G1 X139.048 Y149.95 E9.22987
G1 X138.212 Y150.576 E9.28197
G1 X138.045 Y150.697 E9.29226
G1 X136.839 Y151.54 E9.36567
G1 X135.949 Y152.14 E9.41922
G1 X135.607 Y152.361 E9.43953
G1 X134.632 Y152.975 E9.49702
G1 X133.816 Y153.474 E9.54474
G1 X133.377 Y153.729 E9.57007
G1 X132.317 Y154.329 E9.63083
G1 X131.484 Y154.786 E9.67824
G1 X131.307 Y154.88 E9.68823
G1 X129.972 Y155.558 E9.76294
G1 X129.038 Y156.013 E9.81477
G1 X128.723 Y156.158 E9.83207
G1 X127.53 Y156.693 E9.8973
G1 X126.745 Y157.032 E9.93996
G1 X126.33 Y157.202 E9.96233
G1 X125.125 Y157.676 E10.02693
G1 X124.263 Y158.001 E10.07289
G1 X123.829 Y158.155 E10.09587
G1 X122.68 Y158.544 E10.15639
G1 X121.602 Y158.893 E10.21292
G1 X121.304 Y158.981 E10.22842
G1 X120.094 Y159.331 E10.29126
G1 X119.079 Y159.606 E10.34373
G1 X118.787 Y159.679 E10.35874
G1 X117.546 Y159.974 E10.42238
G1 X116.635 Y160.179 E10.46897
G1 X116.431 Y160.221 E10.47936
G1 X114.926 Y160.508 E10.5558
G1 X113.921 Y160.683 E10.60669
G1 X113.608 Y160.73 E10.62248
G1 X112.372 Y160.904 E10.68475
G1 X111.405 Y161.028 E10.73339
G1 X111.193 Y161.052 E10.74404
G1 X109.725 Y161.19 E10.8176
G1 X108.76 Y161.267 E10.8659
G1 X108.556 Y161.28 E10.8761
G1 X107.082 Y161.349 E10.94971
G1 X105.993 Y161.384 E11.00407
G1 X105.752 Y161.386 E11.0161
G1 X104.445 Y161.385 E11.0813
G1 X103.515 Y161.372 E11.12771
G1 X103.029 Y161.355 E11.15197
G1 X101.813 Y161.298 E11.2127
G1 X100.839 Y161.238 E11.26138
G1 X100.416 Y161.204 E11.28256
G1 X99.159 Y161.085 E11.34555
G1 X98.08 Y160.966 E11.39971
G1 X97.798 Y160.929 E11.4139
G1 X96.532 Y160.749 E11.47769
G1 X95.621 Y160.607 E11.52369
G1 X95.171 Y160.527 E11.54649
G1 X93.934 Y160.292 E11.60931
G1 X92.997 Y160.1 E11.65703
G1 X92.611 Y160.013 E11.67677
G1 X91.337 Y159.707 E11.74214
G1 X90.46 Y159.485 E11.78727
G1 X90.008 Y159.361 E11.81066
G1 X88.833 Y159.021 E11.87168
G1 X87.916 Y158.743 E11.91949
G1 X87.462 Y158.594 E11.94333
G1 X86.313 Y158.202 E12.00389
G1 X85.411 Y157.881 E12.05166
G1 X85.227 Y157.812 E12.06146
G1 X83.836 Y157.267 E12.136
G1 X82.906 Y156.884 E12.18618
G1 X82.724 Y156.806 E12.19606
G1 X81.404 Y156.213 E12.26825
G1 X80.447 Y155.765 E12.32097
G1 X80.097 Y155.593 E12.34042
G1 X79.009 Y155.041 E12.40129
G1 X78.199 Y154.616 E12.44693
G1 X77.778 Y154.385 E12.47088
G1 X76.737 Y153.794 E12.53061
G1 X75.875 Y153.288 E12.58047
G1 X75.484 Y153.048 E12.60336
G1 X74.47 Y152.407 E12.66321
G1 X73.657 Y151.88 E12.71155
G1 X73.476 Y151.759 E12.72241
G1 X72.252 Y150.904 E12.7969
G1 X71.401 Y150.291 E12.84922
G1 X71.113 Y150.073 E12.86724
G1 X70.13 Y149.314 E12.9292
G1 X69.309 Y148.662 E12.98151
G1 X69.078 Y148.47 E12.99649
G1 X68.117 Y147.654 E13.05939
G1 X67.405 Y147.032 E13.10656
G1 X67.022 Y146.682 E13.13244
G1 X66.16 Y145.877 E13.19129
G1 X65.46 Y145.207 E13.23963
G1 X65.315 Y145.064 E13.24979
G1 X64.3 Y144.028 E13.32215
G1 X63.524 Y143.208 E13.37847
G1 X63.306 Y142.967 E13.39468
G1 X62.514 Y142.075 E13.4542
G1 X61.867 Y141.326 E13.50358
G1 X61.57 Y140.967 E13.52682
G1 X60.835 Y140.058 E13.58514
G1 X60.217 Y139.273 E13.63498
G1 X60.089 Y139.104 E13.64556
G1 X59.218 Y137.918 E13.71897
G1 X58.578 Y137.017 E13.77411
G1 X58.389 Y136.737 E13.79096
G1 X57.733 Y135.748 E13.85017
G1 X57.128 Y134.807 E13.90599
G1 X57.005 Y134.605 E13.91779
G1 X56.306 Y133.436 E13.98574
G1 X55.865 Y132.674 E14.02966
G1 X55.769 Y132.503 E14.03945
G1 X55.054 Y131.173 E14.11478
G1 X54.596 Y130.29 E14.16441
G1 X54.501 Y130.1 E14.175
G1 X53.884 Y128.805 E14.24657
G1 X53.412 Y127.777 E14.30301
G1 X53.311 Y127.543 E14.31572
G1 X52.844 Y126.435 E14.37571
G1 X52.421 Y125.385 E14.43218
G1 X52.298 Y125.058 E14.44961
G1 X51.873 Y123.899 E14.5112
G1 X51.561 Y123.01 E14.55821
G1 X51.424 Y122.594 E14.58006
G1 X51.041 Y121.371 E14.644
G1 X50.734 Y120.338 E14.69776
G1 X50.662 Y120.076 E14.71132
G1 X50.338 Y118.846 E14.77477
G1 X50.086 Y117.824 E14.82729
G1 X49.995 Y117.425 E14.84771
G1 X49.758 Y116.317 E14.90423
G1 X49.553 Y115.288 E14.95658
G1 X49.516 Y115.083 E14.96697
G1 X49.278 Y113.644 E15.03974
G1 X49.145 Y112.766 E15.08404
G1 X49.074 Y112.214 E15.11181
G1 X48.939 Y111.062 E15.16968
G1 X48.838 Y110.087 E15.21858
G1 X48.821 Y109.887 E15.22859
G1 X48.715 Y108.409 E15.30252
G1 X48.663 Y107.477 E15.34909
G1 X48.645 Y106.972 E15.3743
G1 X48.616 Y105.755 E15.43504
G1 X48.608 Y104.86 E15.47969
G1 X48.615 Y104.295 E15.50788
G1 X48.642 Y103.168 E15.56412
G1 X48.687 Y102.002 E15.62234
G1 X48.701 Y101.776 E15.63363
G1 X48.795 Y100.454 E15.69976
G1 X48.883 Y99.44 E15.75053
G1 X48.928 Y99.021 E15.77156
G1 X49.06 Y97.913 E15.82723
G1 X49.196 Y96.879 E15.87926
G1 X49.226 Y96.674 E15.88959
G1 X49.466 Y95.224 E15.96292
G1 X49.631 Y94.309 E16.00931
G1 X49.717 Y93.877 E16.03128
G1 X49.984 Y92.633 E16.09476
G1 X50.198 Y91.7 E16.14251
G1 X50.246 Y91.505 E16.15253
G1 X50.634 Y90.031 E16.22858
G1 X50.867 Y89.197 E16.27178
G1 X50.922 Y89.011 E16.28145
G1 X51.374 Y87.568 E16.3569
G1 X51.729 Y86.497 E16.41319
G1 X51.818 Y86.249 E16.42633
G1 X52.255 Y85.059 E16.48958
G1 X52.636 Y84.07 E16.54245
G1 X52.758 Y83.769 E16.55866
G1 X53.264 Y82.573 E16.62345
G1 X53.625 Y81.747 E16.66842
G1 X53.712 Y81.556 E16.67889
G1 X54.354 Y80.211 E16.75325
G1 X54.854 Y79.204 E16.80934
G1 X54.98 Y78.965 E16.82282
G1 X55.573 Y77.859 E16.88543
G1 X56.026 Y77.039 E16.93216
G1 X56.135 Y76.85 E16.94305
G1 X56.894 Y75.581 E17.01682
G1 X57.404 Y74.755 E17.06525
G1 X57.515 Y74.582 E17.07551
G1 X58.323 Y73.364 E17.14843
G1 X58.951 Y72.449 E17.20379
G1 X59.154 Y72.169 E17.22105
G1 X59.854 Y71.215 E17.28008
G1 X60.517 Y70.339 E17.33489
G1 X60.76 Y70.034 E17.35435
G1 X61.497 Y69.124 E17.41277
G1 X62.097 Y68.401 E17.45964
G1 X62.235 Y68.241 E17.47018
G1 X63.242 Y67.106 E17.54588
G1 X63.945 Y66.339 E17.59779
G1 X64.194 Y66.08 E17.61572
G1 X65.045 Y65.211 E17.6764
M205 X10 Y10
G0 F6000 X65.327 Y65.495
M205 X8 Y8
G1 F1200 X66.018 Y64.808 E17.72501
G1 X66.333 Y64.507 E17.74675
G1 X67.229 Y63.671 E17.80788
G1 X67.922 Y63.043 E17.85454
G1 X68.256 Y62.752 E17.87664
G1 X69.206 Y61.948 E17.93873
G1 X69.953 Y61.332 E17.98704
G1 X70.102 Y61.213 E17.99655
G1 X71.267 Y60.314 E18.06997
G1 X72.028 Y59.744 E18.1174
G1 X72.184 Y59.631 E18.12701
G1 X73.381 Y58.794 E18.19988
G1 X74.282 Y58.186 E18.25411
G1 X74.604 Y57.979 E18.27321
G1 X75.579 Y57.365 E18.33069
G1 X76.526 Y56.788 E18.38602
G1 X76.82 Y56.619 E18.40294
G1 X77.877 Y56.02 E18.46355
G1 X78.709 Y55.564 E18.51088
G1 X78.872 Y55.478 E18.52008
G1 X80.116 Y54.845 E18.58972
G1 X81.131 Y54.35 E18.64606
G1 X81.441 Y54.207 E18.66309
G1 X82.628 Y53.675 E18.72798
G1 X83.546 Y53.28 E18.77784
G1 X83.819 Y53.17 E18.79253
G1 X85.007 Y52.703 E18.85621
G1 X85.871 Y52.376 E18.9023
G1 X86.299 Y52.225 E18.92494
G1 X87.445 Y51.835 E18.98534
G1 X88.506 Y51.492 E19.04097
G1 X88.808 Y51.402 E19.05669
G1 X90.009 Y51.055 E19.11906
G1 X90.9 Y50.812 E19.16513
G1 X91.302 Y50.711 E19.18581
G1 X92.543 Y50.415 E19.24946
G1 X93.454 Y50.21 E19.29605
G1 X93.644 Y50.171 E19.30573
G1 X95.15 Y49.884 E19.38221
G1 X96.14 Y49.713 E19.43234
G1 X96.448 Y49.666 E19.44788
G1 X97.679 Y49.493 E19.5099
G1 X98.646 Y49.369 E19.55854
G1 X98.844 Y49.347 E19.56848
G1 X100.307 Y49.209 E19.64179
G1 X101.272 Y49.132 E19.69009
G1 X101.463 Y49.12 E19.69963
G1 X102.931 Y49.05 E19.77296
G1 X103.86 Y49.019 E19.81933
G1 X104.25 Y49.014 E19.83879
G1 X105.465 Y49.014 E19.89941
G1 X106.481 Y49.028 E19.9501
G1 X106.954 Y49.044 E19.97371
G1 X108.162 Y49.101 E20.03405
G1 X109.135 Y49.161 E20.08268
G1 X109.548 Y49.194 E20.10335
G1 X110.798 Y49.312 E20.16599
G1 X111.734 Y49.414 E20.21296
G1 X112.144 Y49.467 E20.23359
G1 X113.408 Y49.647 E20.29729
G1 X114.451 Y49.811 E20.34996
G1 X114.754 Y49.866 E20.36533
G1 X115.981 Y50.1 E20.42764
G1 X117.034 Y50.316 E20.48127
G1 X117.293 Y50.375 E20.49453
G1 X118.568 Y50.681 E20.55994
G1 X119.583 Y50.94 E20.6122
G1 X119.881 Y51.024 E20.62765
G1 X121.052 Y51.363 E20.68847
G1 X121.968 Y51.641 E20.73623
G1 X122.409 Y51.785 E20.75937
G1 X123.555 Y52.176 E20.81978
G1 X124.456 Y52.497 E20.8675
G1 X124.625 Y52.56 E20.8765
G1 X126.007 Y53.101 E20.95054
G1 X126.937 Y53.483 E21.0007
G1 X127.112 Y53.558 E21.0102
G1 X128.432 Y54.151 E21.0824
G1 X129.378 Y54.594 E21.13451
G1 X129.722 Y54.763 E21.15363
G1 X130.805 Y55.313 E21.21423
G1 X131.615 Y55.738 E21.25987
G1 X132.029 Y55.966 E21.28345
G1 X133.056 Y56.549 E21.34236
G1 X134.048 Y57.132 E21.39977
G1 X134.302 Y57.29 E21.41469
G1 X135.313 Y57.928 E21.47434
G1 X136.126 Y58.455 E21.52267
G1 X136.291 Y58.567 E21.53262
G1 X137.519 Y59.423 E21.6073
