;FLAVOR:Marlin
;TIME:3435
;Filament used: 2.84518m
;Layer height: 0.2
;MINX:45.313
;MINY:48.116
;MINZ:0.3
;MAXX:164.469
;MAXY:159.362
;MAXZ:2.175
;Generated with Cura_SteamEngine 4.12.1
M82 ;absolute extrusion mode
G21                                        ; metric values 
G90                                        ; absolute positioning 
M82                                        ; set extruder to absolute mode 
M107                                       ; start with the fan off 
M140 S60           ; Start heating the bed 
G4 S60                                     ; wait 1 minute 
M104 S210         ; start heating the hot end 
M190 S60           ; wait for bed 
M109 S210         ; wait for hotend 
M300 S1000 P500                            ; BEEP heating done 
G28 X0 Y10 Z0                              ; move X/Y to min endstops 
M420 S1                                    ; Enable leveling 
M420 Z2.0                                  ; Set leveling fading height to 2 mm 
G0 Z0.15                                   ; lift nozzle a bit 
G92 E0                                     ; zero the extruded length 
G1 X50 E25 F500                            ; Extrude 25mm of filament in a 5cm line. 
G92 E0                                     ; zero the extruded length again 
G1 E-2 F500                                ; Retract a little 
G1 X120 F4000                              ; Quickly wipe away from the filament line`
G92 E0
G92 E0
G1 F1500 E-6
;LAYER_COUNT:10
;LAYER:0
M106 S76.5
M205 X10 Y10
G1 F600 Z0.375
G0 F6000 X55.138 Y56.688 Z0.375
M205 X8 Y8
;TYPE:SKIRT
G1 F600 Z0.3
G1 F1500 E0
G1 F1200 X55.627 Y56.234 E0.03329
G1 X55.797 Y56.083 E0.04463
G1 X56.691 Y55.316 E0.1034
G1 X57.219 Y54.886 E0.13737
G1 X57.393 Y54.751 E0.14836
G1 X58.324 Y54.053 E0.20641
G1 X58.494 Y53.93 E0.21688
G1 X58.927 Y53.627 E0.24325
G1 X59.106 Y53.506 E0.25403
G1 X60.082 Y52.871 E0.31212
G1 X60.614 Y52.546 E0.34322
G1 X60.787 Y52.445 E0.35322
G1 X61.858 Y51.843 E0.41451
G1 X62.49 Y51.512 E0.4501
G1 X62.674 Y51.421 E0.46034
G1 X63.709 Y50.928 E0.51754
G1 X64.335 Y50.65 E0.55171
G1 X64.531 Y50.569 E0.56229
G1 X65.635 Y50.129 E0.62158
G1 X66.254 Y49.901 E0.65449
G1 X66.463 Y49.83 E0.66551
G1 X67.599 Y49.463 E0.72507
G1 X68.249 Y49.272 E0.75887
G1 X68.456 Y49.217 E0.76955
G1 X69.596 Y48.93 E0.8282
G1 X70.243 Y48.785 E0.86128
G1 X70.462 Y48.741 E0.87243
G1 X71.642 Y48.525 E0.93227
G1 X72.312 Y48.421 E0.9661
G1 X72.524 Y48.394 E0.97676
G1 X73.686 Y48.261 E1.03511
G1 X74.356 Y48.202 E1.06867
G1 X74.566 Y48.189 E1.07917
G1 X75.776 Y48.13 E1.13961
G1 X76.437 Y48.116 E1.17259
G1 X76.65 Y48.116 E1.18322
G1 X77.843 Y48.137 E1.24275
G1 X78.511 Y48.167 E1.27611
G1 X78.734 Y48.182 E1.28726
G1 X79.93 Y48.283 E1.34714
G1 X80.581 Y48.356 E1.37982
G1 X80.79 Y48.384 E1.39034
G1 X81.994 Y48.566 E1.45109
G1 X82.627 Y48.679 E1.48317
G1 X82.842 Y48.723 E1.49412
G1 X84.101 Y49.001 E1.55844
G1 X84.511 Y49.099 E1.57947
G1 X87.102 Y49.681 E1.71196
G1 X89.671 Y50.183 E1.84255
G1 X92.306 Y50.62 E1.97581
G1 X94.936 Y50.98 E2.10824
G1 X97.555 Y51.264 E2.23967
G1 X100.196 Y51.474 E2.37185
G1 X102.87 Y51.612 E2.50543
G1 X105.477 Y51.672 E2.63553
G1 X108.155 Y51.657 E2.76914
G1 X110.761 Y51.57 E2.89922
G1 X113.44 Y51.404 E3.03314
G1 X116.066 Y51.167 E3.16468
G1 X118.686 Y50.855 E3.29632
G1 X121.326 Y50.465 E3.42946
G1 X123.916 Y50.007 E3.56068
G1 X126.227 Y49.535 E3.67835
G1 X126.841 Y49.405 E3.70966
G1 X128.031 Y49.187 E3.77002
G1 X128.695 Y49.084 E3.80355
G1 X128.905 Y49.057 E3.81411
G1 X130.081 Y48.922 E3.87316
G1 X130.791 Y48.861 E3.90872
G1 X130.994 Y48.848 E3.91887
G1 X132.143 Y48.792 E3.97626
G1 X132.834 Y48.778 E4.01074
G1 X133.041 Y48.778 E4.02107
G1 X134.237 Y48.799 E4.08074
G1 X134.884 Y48.828 E4.11306
G1 X135.099 Y48.842 E4.1238
G1 X136.316 Y48.944 E4.18473
G1 X136.968 Y49.017 E4.21747
G1 X137.181 Y49.045 E4.22818
G1 X138.323 Y49.217 E4.2858
G1 X139.003 Y49.338 E4.32026
G1 X139.226 Y49.383 E4.33161
G1 X140.417 Y49.645 E4.39245
G1 X141.05 Y49.804 E4.42501
G1 X141.24 Y49.856 E4.43484
G1 X142.424 Y50.199 E4.49634
G1 X143.038 Y50.396 E4.52851
G1 X143.228 Y50.462 E4.53854
G1 X144.339 Y50.865 E4.5975
G1 X145 Y51.126 E4.63296
G1 X145.192 Y51.207 E4.64336
G1 X146.284 Y51.688 E4.70289
G1 X146.861 Y51.961 E4.73473
G1 X147.051 Y52.056 E4.74533
G1 X148.101 Y52.603 E4.8044
G1 X148.722 Y52.95 E4.83989
G1 X148.9 Y53.054 E4.85017
G1 X149.925 Y53.678 E4.91004
G1 X150.451 Y54.018 E4.94129
G1 X150.632 Y54.141 E4.95221
G1 X151.643 Y54.853 E5.0139
G1 X152.148 Y55.229 E5.04531
G1 X152.317 Y55.361 E5.05601
G1 X153.244 Y56.109 E5.11543
G1 X153.758 Y56.549 E5.14919
G1 X153.909 Y56.683 E5.15926
G1 X154.813 Y57.516 E5.22059
G1 X155.277 Y57.968 E5.25291
G1 X155.438 Y58.132 E5.26437
G1 X156.249 Y58.987 E5.32317
G1 X156.685 Y59.472 E5.3557
G1 X156.82 Y59.63 E5.36607
G1 X157.589 Y60.555 E5.42609
G1 X158.021 Y61.105 E5.46098
G1 X158.151 Y61.277 E5.47173
G1 X158.837 Y62.224 E5.53007
G1 X159.219 Y62.782 E5.56381
G1 X159.342 Y62.97 E5.57502
G1 X159.944 Y63.927 E5.63142
G1 X160.278 Y64.491 E5.66413
G1 X160.381 Y64.675 E5.67465
G1 X160.981 Y65.784 E5.73755
G1 X161.292 Y66.4 E5.77198
G1 X161.383 Y66.59 E5.78249
G1 X161.858 Y67.629 E5.83949
G1 X162.129 Y68.268 E5.87412
G1 X162.212 Y68.476 E5.88529
G1 X162.628 Y69.573 E5.94382
G1 X162.853 Y70.218 E5.9779
G1 X162.92 Y70.425 E5.98876
G1 X163.265 Y71.555 E6.0477
G1 X163.429 Y72.147 E6.07835
G1 X163.486 Y72.37 E6.08983
G1 X163.774 Y73.598 E6.15276
G1 X163.907 Y74.239 E6.18542
G1 X163.948 Y74.463 E6.19678
G1 X164.139 Y75.62 E6.25529
G1 X164.229 Y76.278 E6.28842
G1 X164.254 Y76.494 E6.29927
G1 X164.37 Y77.673 E6.35837
G1 X164.416 Y78.305 E6.38999
G1 X164.427 Y78.529 E6.40117
G1 X164.466 Y79.753 E6.46227
G1 X164.469 Y80.425 E6.4958
G1 X164.465 Y80.639 E6.50648
G1 X164.426 Y81.803 E6.56458
G1 X164.384 Y82.479 E6.59837
G1 X164.367 Y82.68 E6.60844
G1 X164.247 Y83.882 E6.6687
G1 X164.162 Y84.547 E6.70215
G1 X164.13 Y84.761 E6.71294
G1 X163.936 Y85.922 E6.77167
G1 X163.81 Y86.572 E6.8047
G1 X163.76 Y86.804 E6.81654
G1 X163.482 Y87.974 E6.87654
G1 X163.315 Y88.6 E6.90886
G1 X163.257 Y88.802 E6.91935
G1 X162.898 Y89.97 E6.98031
G1 X162.69 Y90.585 E7.0127
G1 X162.618 Y90.782 E7.02316
G1 X162.183 Y91.921 E7.08399
G1 X161.936 Y92.52 E7.11632
G1 X161.85 Y92.714 E7.1269
G1 X161.362 Y93.778 E7.1853
G1 X161.044 Y94.422 E7.22114
G1 X160.949 Y94.605 E7.23142
G1 X160.382 Y95.651 E7.29078
G1 X160.055 Y96.215 E7.32331
G1 X159.948 Y96.391 E7.33358
G1 X159.317 Y97.392 E7.39262
G1 X158.932 Y97.968 E7.42718
G1 X158.807 Y98.146 E7.43803
G1 X158.124 Y99.085 E7.49596
G1 X157.704 Y99.631 E7.53033
G1 X157.564 Y99.804 E7.54143
G1 X156.8 Y100.72 E7.60094
G1 X156.658 Y100.885 E7.6118
G1 X156.187 Y101.41 E7.64699
G1 X154.565 Y103.161 E7.76607
G1 X152.801 Y105.181 E7.89987
G1 X151.135 Y107.198 E8.03038
G1 X149.493 Y109.305 E8.16365
G1 X147.935 Y111.427 E8.29499
G1 X146.404 Y113.638 E8.42916
G1 X144.987 Y115.814 E8.55871
G1 X143.589 Y118.102 E8.69248
G1 X142.293 Y120.363 E8.8225
G1 X141.017 Y122.743 E8.95723
G1 X139.857 Y125.062 E9.08659
G1 X138.716 Y127.513 E9.22147
G1 X137.692 Y129.888 E9.3505
G1 X136.694 Y132.388 E9.4848
G1 X135.793 Y134.852 E9.61569
G1 X135.224 Y136.579 E9.70641
G1 X134.463 Y138.788 E9.82297
G1 X134.246 Y139.367 E9.85382
G1 X134.163 Y139.573 E9.8649
G1 X133.687 Y140.703 E9.92607
G1 X133.419 Y141.297 E9.95859
G1 X133.32 Y141.504 E9.97003
G1 X132.796 Y142.55 E10.0284
G1 X132.492 Y143.12 E10.06063
G1 X132.374 Y143.33 E10.07265
G1 X131.769 Y144.359 E10.1322
G1 X131.664 Y144.531 E10.14225
G1 X131.385 Y144.973 E10.16833
G1 X131.266 Y145.155 E10.17918
G1 X130.625 Y146.098 E10.23607
G1 X130.23 Y146.645 E10.26973
G1 X130.099 Y146.82 E10.28063
G1 X129.337 Y147.794 E10.34233
G1 X128.948 Y148.265 E10.37281
G1 X128.803 Y148.432 E10.38384
G1 X128.006 Y149.324 E10.44352
G1 X127.535 Y149.822 E10.47772
G1 X127.391 Y149.969 E10.48798
G1 X126.554 Y150.79 E10.54648
G1 X126.065 Y151.244 E10.57976
G1 X125.895 Y151.395 E10.59111
G1 X125.001 Y152.162 E10.64988
G1 X124.473 Y152.592 E10.68385
G1 X124.299 Y152.727 E10.69484
G1 X123.368 Y153.425 E10.75289
G1 X123.198 Y153.548 E10.76336
G1 X122.765 Y153.851 E10.78972
G1 X122.586 Y153.972 E10.8005
G1 X121.61 Y154.607 E10.85859
G1 X121.078 Y154.932 E10.8897
G1 X120.905 Y155.033 E10.89969
G1 X119.834 Y155.635 E10.96099
G1 X119.637 Y155.741 E10.97215
G1 X119.192 Y155.971 E10.99714
G1 X119.006 Y156.064 E11.00751
G1 X117.986 Y156.55 E11.06388
G1 X117.381 Y156.818 E11.09689
G1 X117.179 Y156.902 E11.10781
G1 X116.013 Y157.366 E11.17042
G1 X115.421 Y157.584 E11.20189
G1 X115.211 Y157.656 E11.21297
G1 X114.103 Y158.013 E11.27104
G1 X113.443 Y158.206 E11.30535
G1 X113.24 Y158.26 E11.31583
G1 X112.099 Y158.548 E11.37454
G1 X111.439 Y158.696 E11.40829
G1 X111.23 Y158.737 E11.41891
G1 X110.05 Y158.953 E11.47876
G1 X109.377 Y159.057 E11.51273
G1 X109.168 Y159.084 E11.52325
G1 X108.008 Y159.217 E11.5815
G1 X107.335 Y159.276 E11.6152
G1 X107.126 Y159.289 E11.62565
G1 X105.917 Y159.348 E11.68604
G1 X105.255 Y159.362 E11.71908
G1 X105.042 Y159.362 E11.7297
G1 X103.849 Y159.341 E11.78923
G1 X103.181 Y159.311 E11.82259
G1 X102.958 Y159.296 E11.83374
G1 X101.762 Y159.195 E11.89362
G1 X101.111 Y159.122 E11.9263
G1 X100.902 Y159.094 E11.93682
G1 X99.698 Y158.912 E11.99757
G1 X99.028 Y158.791 E12.03154
G1 X98.829 Y158.751 E12.04167
G1 X97.756 Y158.516 E12.09647
G1 X97.555 Y158.468 E12.10678
G1 X97.065 Y158.344 E12.132
G1 X96.859 Y158.289 E12.14263
G1 X95.696 Y157.953 E12.20303
G1 X95.038 Y157.741 E12.23752
G1 X94.852 Y157.677 E12.24733
G1 X93.721 Y157.267 E12.30735
G1 X93.125 Y157.032 E12.33931
G1 X92.92 Y156.946 E12.3504
G1 X91.804 Y156.454 E12.41125
G1 X91.231 Y156.183 E12.44288
G1 X91.041 Y156.088 E12.45347
G1 X89.972 Y155.531 E12.51361
G1 X89.781 Y155.427 E12.52446
G1 X89.335 Y155.175 E12.55002
G1 X89.156 Y155.07 E12.56037
G1 X88.18 Y154.476 E12.61737
G1 X87.629 Y154.12 E12.6501
G1 X87.451 Y153.999 E12.66084
G1 X86.44 Y153.287 E12.72253
G1 X85.957 Y152.928 E12.75256
G1 X85.782 Y152.792 E12.76361
G1 X84.841 Y152.033 E12.82393
G1 X84.672 Y151.891 E12.83494
G1 X84.272 Y151.545 E12.86133
G1 X84.118 Y151.407 E12.87164
G1 X83.271 Y150.625 E12.92916
G1 X82.813 Y150.18 E12.96102
G1 X82.664 Y150.029 E12.9716
G1 X81.848 Y149.171 E13.03067
G1 X81.392 Y148.662 E13.06477
G1 X81.257 Y148.504 E13.07514
G1 X80.485 Y147.575 E13.1354
G1 X80.065 Y147.041 E13.16929
G1 X79.933 Y146.865 E13.18027
G1 X79.245 Y145.915 E13.23879
G1 X78.876 Y145.376 E13.27138
G1 X78.761 Y145.199 E13.28191
G1 X78.124 Y144.187 E13.34157
G1 X77.76 Y143.569 E13.37735
G1 X77.667 Y143.402 E13.38688
G1 X77.103 Y142.36 E13.446
G1 X76.809 Y141.779 E13.47848
G1 X76.715 Y141.582 E13.48937
G1 X76.218 Y140.494 E13.54905
G1 X75.941 Y139.84 E13.58448
G1 X75.864 Y139.646 E13.5949
G1 X75.454 Y138.566 E13.65253
G1 X75.223 Y137.904 E13.68751
G1 X74.379 Y135.279 E13.82507
G1 X73.49 Y132.761 E13.9583
G1 X72.535 Y130.282 E14.09083
G1 X71.516 Y127.845 E14.22262
G1 X70.439 Y125.459 E14.35322
G1 X69.259 Y123.03 E14.48795
G1 X68.062 Y120.736 E14.61704
G1 X66.744 Y118.376 E14.7519
G1 X65.401 Y116.12 E14.88288
G1 X63.992 Y113.901 E15.01402
G1 X62.502 Y111.694 E15.14687
G1 X60.943 Y109.521 E15.2803
G1 X59.366 Y107.448 E15.41025
G1 X57.7 Y105.381 E15.5427
G1 X55.984 Y103.374 E15.67444
G1 X53.824 Y101.007 E15.8343
G1 X52.826 Y99.882 E15.90933
G1 X52.411 Y99.388 E15.94152
G1 X52.28 Y99.224 E15.95199
G1 X51.532 Y98.261 E16.01283
G1 X51.131 Y97.713 E16.04671
G1 X51.01 Y97.54 E16.05724
G1 X50.34 Y96.546 E16.11704
G1 X49.981 Y95.981 E16.15044
G1 X49.871 Y95.799 E16.16105
G1 X49.278 Y94.78 E16.21987
G1 X48.955 Y94.189 E16.25347
G1 X48.855 Y93.995 E16.26436
G1 X48.334 Y92.946 E16.32279
G1 X48.038 Y92.304 E16.35806
G1 X47.959 Y92.124 E16.36787
G1 X47.51 Y91.051 E16.4259
G1 X47.267 Y90.42 E16.45964
G1 X47.191 Y90.211 E16.47073
G1 X46.789 Y89.032 E16.53288
G1 X46.603 Y88.429 E16.56436
G1 X46.548 Y88.239 E16.57423
G1 X46.243 Y87.107 E16.63272
G1 X46.193 Y86.907 E16.643
G1 X46.078 Y86.418 E16.66806
G1 X46.03 Y86.196 E16.67939
G1 X45.792 Y84.994 E16.74053
G1 X45.689 Y84.385 E16.77134
G1 X45.659 Y84.186 E16.78138
G1 X45.501 Y82.982 E16.84196
G1 X45.433 Y82.319 E16.87522
G1 X45.416 Y82.109 E16.88573
G1 X45.34 Y80.928 E16.94477
G1 X45.316 Y80.267 E16.97777
G1 X45.313 Y80.057 E16.98825
G1 X45.315 Y78.848 E17.04856
G1 X45.336 Y78.145 E17.08365
G1 X45.347 Y77.925 E17.09464
G1 X45.427 Y76.767 E17.15255
G1 X45.493 Y76.087 E17.18664
G1 X45.517 Y75.888 E17.19664
G1 X45.666 Y74.777 E17.25256
G1 X45.772 Y74.119 E17.28581
G1 X45.814 Y73.89 E17.29743
G1 X46.066 Y72.647 E17.3607
G1 X46.213 Y72.012 E17.39322
G1 X46.265 Y71.811 E17.40358
G1 X46.573 Y70.682 E17.46196
G1 X46.765 Y70.048 E17.49501
G1 X46.829 Y69.85 E17.50539
G1 X47.229 Y68.689 E17.56666
G1 X47.452 Y68.095 E17.59831
G1 X47.536 Y67.885 E17.6096
G1 X48.005 Y66.773 E17.66981
G1 X48.278 Y66.171 E17.70278
G1 X48.371 Y65.978 E17.71347
G1 X48.895 Y64.931 E17.77188
G1 X49.196 Y64.364 E17.80391
G1 X49.317 Y64.15 E17.81618
G1 X49.923 Y63.119 E17.87584
G1 X50.033 Y62.938 E17.88641
G1 X50.318 Y62.488 E17.91298
G1 X50.429 Y62.318 E17.92311
G1 X51.031 Y61.431 E17.97659
G1 X51.147 Y61.266 E17.98666
G1 X51.454 Y60.843 E18.01273
G1 X51.591 Y60.661 E18.0241
G1 X52.353 Y59.686 E18.08583
G1 X52.751 Y59.205 E18.11698
G1 X52.889 Y59.046 E18.12748
G1 X53.686 Y58.154 E18.18716
G1 X54.157 Y57.656 E18.22136
G1 X54.301 Y57.509 E18.23163
G1 X55.138 Y56.688 E18.29012
M205 X10 Y10
G0 F6000 X55.418 Y56.974
M205 X8 Y8
G1 F1200 X55.898 Y56.528 E18.32281
G1 X56.057 Y56.386 E18.33344
G1 X56.951 Y55.619 E18.39221
G1 X57.47 Y55.198 E18.42555
G1 X57.633 Y55.071 E18.43586
G1 X58.564 Y54.373 E18.49391
G1 X58.723 Y54.258 E18.5037
G1 X59.156 Y53.955 E18.53007
G1 X59.324 Y53.842 E18.54017
G1 X60.3 Y53.207 E18.59826
G1 X60.821 Y52.888 E18.62874
G1 X60.983 Y52.794 E18.63808
G1 X62.054 Y52.192 E18.69938
G1 X62.674 Y51.867 E18.7343
G1 X62.846 Y51.782 E18.74387
G1 X63.881 Y51.289 E18.80107
G1 X64.496 Y51.017 E18.83462
G1 X64.679 Y50.94 E18.84452
G1 X65.783 Y50.5 E18.90382
G1 X66.39 Y50.277 E18.93608
G1 X66.585 Y50.211 E18.94635
G1 X67.721 Y49.844 E19.00591
G1 X68.36 Y49.657 E19.03913
G1 X68.553 Y49.605 E19.0491
G1 X69.693 Y49.318 E19.10775
G1 X70.329 Y49.175 E19.14027
G1 X70.534 Y49.134 E19.1507
G1 X71.714 Y48.918 E19.21055
G1 X72.371 Y48.817 E19.24371
G1 X72.57 Y48.791 E19.25372
G1 X73.732 Y48.658 E19.31207
G1 X74.388 Y48.601 E19.34493
G1 X74.586 Y48.588 E19.35483
G1 X75.796 Y48.529 E19.41526
G1 X76.443 Y48.516 E19.44755
G1 X76.643 Y48.516 E19.45753
G1 X77.836 Y48.537 E19.51706
G1 X78.491 Y48.566 E19.54977
G1 X78.7 Y48.58 E19.56022
G1 X79.896 Y48.681 E19.6201
G1 X80.534 Y48.753 E19.65213
G1 X80.73 Y48.779 E19.66199
G1 X81.934 Y48.961 E19.72274
G1 X82.554 Y49.073 E19.75418
G1 X82.756 Y49.114 E19.76446
G1 X84.008 Y49.39 E19.82842
G1 X84.401 Y49.484 E19.84858
G1 X87.01 Y50.07 E19.98199
G1 X89.635 Y50.583 E20.11543
G1 X92.258 Y51.018 E20.24808
G1 X94.875 Y51.377 E20.37986
G1 X97.516 Y51.662 E20.51239
G1 X100.177 Y51.874 E20.64557
G1 X102.841 Y52.011 E20.77865
G1 X105.47 Y52.072 E20.90985
G1 X108.135 Y52.058 E21.0428
G1 X110.8 Y51.968 E21.17584
G1 X113.465 Y51.803 E21.30905
G1 X116.117 Y51.564 E21.44189
G1 X118.756 Y51.25 E21.57448
G1 X121.342 Y50.867 E21.70491
G1 X124.03 Y50.392 E21.84109
G1 X126.314 Y49.925 E21.9574
G1 X126.913 Y49.798 E21.98795
G1 X128.103 Y49.58 E22.0483
G1 X128.753 Y49.48 E22.08111
G1 X128.951 Y49.454 E22.09108
G1 X130.127 Y49.319 E22.15013
G1 X130.823 Y49.259 E22.18498
G1 X131.014 Y49.247 E22.19453
G1 X132.163 Y49.191 E22.25192
G1 X132.84 Y49.178 E22.28571
G1 X133.034 Y49.178 E22.29538
G1 X134.23 Y49.199 E22.35506
G1 X134.864 Y49.228 E22.38673
G1 X135.065 Y49.241 E22.39677
G1 X136.282 Y49.343 E22.4577
G1 X136.921 Y49.414 E22.48978
G1 X137.122 Y49.441 E22.4999
G1 X138.264 Y49.613 E22.55752
G1 X138.931 Y49.732 E22.59132
G1 X139.14 Y49.774 E22.60195
G1 X140.331 Y50.036 E22.66279
G1 X140.95 Y50.191 E22.69463
G1 X141.129 Y50.24 E22.70389
G1 X142.313 Y50.583 E22.76539
G1 X142.914 Y50.776 E22.79688
G1 X143.092 Y50.838 E22.80628
G1 X144.203 Y51.241 E22.86524
G1 X144.851 Y51.497 E22.9
G1 X145.031 Y51.573 E22.90975
