;FLAVOR:Marlin
;TIME:13526
;Filament used: 10.9587m
;Layer height: 0.2
;MINX:49.876
;MINY:49.882
;MINZ:0.3
;MAXX:160.124
;MAXY:160.118
;MAXZ:8.175
;Generated with Cura_SteamEngine 4.12.1
M82 ;absolute extrusion mode
G21                                        ; metric values 
G90                                        ; absolute positioning 
M82                                        ; set extruder to absolute mode 
M107                                       ; start with the fan off 
M140 S60           ; Start heating the bed 
G4 S60                                     ; wait 1 minute 
M104 S210         ; start heating the hot end 
M190 S60           ; wait for bed 
M109 S210         ; wait for hotend 
M300 S1000 P500                            ; BEEP heating done 
G28 X0 Y10 Z0                              ; move X/Y to min endstops 
M420 S1                                    ; Enable leveling 
M420 Z2.0                                  ; Set leveling fading height to 2 mm 
G0 Z0.15                                   ; lift nozzle a bit 
G92 E0                                     ; zero the extruded length 
G1 X50 E25 F500                            ; Extrude 25mm of filament in a 5cm line. 
G92 E0                                     ; zero the extruded length again 
G1 E-2 F500                                ; Retract a little 
G1 X120 F4000                              ; Quickly wipe away from the filament line`
G92 E0
G92 E0
G1 F1500 E-6
;LAYER_COUNT:40
;LAYER:0
M106 S76.5
M205 X10 Y10
G1 F600 Z0.375
G0 F6000 X65.922 Y66.127 Z0.375
M205 X8 Y8
;TYPE:SKIRT
G1 F600 Z0.3
G1 F1500 E0
G1 F1200 X66.694 Y65.36 E0.05429
G1 X67.001 Y65.068 E0.07543
G1 X67.788 Y64.337 E0.12902
G1 X68.494 Y63.696 E0.17659
G1 X68.653 Y63.556 E0.18716
G1 X69.737 Y62.636 E0.2581
G1 X70.518 Y61.993 E0.30857
G1 X70.671 Y61.871 E0.31833
G1 X71.757 Y61.032 E0.3868
G1 X72.548 Y60.44 E0.43609
G1 X72.715 Y60.319 E0.44638
G1 X73.91 Y59.485 E0.51908
G1 X74.752 Y58.917 E0.56975
G1 X75.01 Y58.75 E0.58508
G1 X76.033 Y58.105 E0.64542
G1 X76.982 Y57.527 E0.70085
G1 X77.226 Y57.386 E0.71491
G1 X78.274 Y56.792 E0.77501
G1 X79.063 Y56.359 E0.81991
G1 X79.538 Y56.113 E0.8466
G1 X80.535 Y55.608 E0.90236
G1 X81.381 Y55.193 E0.94937
G1 X81.812 Y54.992 E0.9731
G1 X82.966 Y54.474 E1.0362
G1 X83.894 Y54.076 E1.08658
G1 X84.1 Y53.993 E1.09766
G1 X85.3 Y53.52 E1.16201
G1 X86.17 Y53.192 E1.2084
G1 X86.624 Y53.032 E1.23241
G1 X87.692 Y52.67 E1.28868
G1 X88.705 Y52.34 E1.34183
G1 X89.075 Y52.229 E1.3611
G1 X90.219 Y51.901 E1.42047
G1 X91.036 Y51.675 E1.46277
G1 X91.544 Y51.546 E1.48891
G1 X92.692 Y51.272 E1.5478
G1 X93.594 Y51.069 E1.59392
G1 X94.092 Y50.968 E1.61927
G1 X95.25 Y50.75 E1.67806
G1 X96.195 Y50.584 E1.72593
G1 X96.703 Y50.507 E1.75156
G1 X97.791 Y50.355 E1.80637
G1 X98.658 Y50.243 E1.84999
G1 X99.164 Y50.188 E1.87538
G1 X100.355 Y50.076 E1.93506
G1 X101.303 Y50 E1.98251
G1 X101.693 Y49.977 E2.002
G1 X102.896 Y49.922 E2.06208
G1 X103.828 Y49.889 E2.10861
G1 X104.322 Y49.882 E2.13325
G1 X105.437 Y49.882 E2.18888
G1 X106.474 Y49.896 E2.24062
G1 X106.676 Y49.902 E2.25071
G1 X108.099 Y49.967 E2.32177
G1 X109.188 Y50.035 E2.37621
G1 X109.568 Y50.068 E2.39524
G1 X110.636 Y50.17 E2.44876
G1 X111.639 Y50.278 E2.49909
G1 X112.068 Y50.333 E2.52067
G1 X113.239 Y50.499 E2.57968
G1 X114.295 Y50.665 E2.63301
G1 X114.696 Y50.738 E2.65334
G1 X115.787 Y50.947 E2.70876
G1 X116.655 Y51.122 E2.75294
G1 X117.189 Y51.242 E2.78024
G1 X118.322 Y51.513 E2.83836
G1 X119.358 Y51.779 E2.89173
G1 X119.698 Y51.874 E2.90934
G1 X120.815 Y52.197 E2.96735
G1 X121.709 Y52.469 E3.01397
G1 X122.121 Y52.604 E3.0356
G1 X123.257 Y52.992 E3.09549
G1 X124.191 Y53.325 E3.14496
G1 X124.38 Y53.395 E3.15502
G1 X125.738 Y53.929 E3.22782
G1 X126.514 Y54.247 E3.26966
G1 X126.998 Y54.458 E3.296
G1 X128.069 Y54.94 E3.35459
G1 X129.047 Y55.397 E3.40845
G1 X129.285 Y55.515 E3.4217
G1 X130.375 Y56.068 E3.48268
G1 X131.197 Y56.498 E3.52896
G1 X131.611 Y56.727 E3.55257
G1 X132.667 Y57.326 E3.61314
G1 X133.464 Y57.793 E3.65922
G1 X133.635 Y57.897 E3.66921
G1 X134.849 Y58.662 E3.7408
G1 X135.603 Y59.152 E3.78566
G1 X135.775 Y59.267 E3.79598
G1 X136.997 Y60.12 E3.87033
G1 X137.689 Y60.615 E3.91278
G1 X138.105 Y60.926 E3.93869
G1 X138.948 Y61.576 E3.9918
G1 X139.843 Y62.286 E4.04879
G1 X139.997 Y62.412 E4.05872
G1 X141.063 Y63.314 E4.12839
G1 X141.72 Y63.887 E4.17188
G1 X142.117 Y64.248 E4.19865
G1 X142.962 Y65.036 E4.2563
G1 X143.631 Y65.677 E4.30252
G1 X143.775 Y65.819 E4.31261
G1 X144.761 Y66.827 E4.38296
G1 X145.551 Y67.66 E4.44023
G1 X145.74 Y67.868 E4.45425
G1 X146.555 Y68.785 E4.51546
G1 X147.232 Y69.572 E4.56725
G1 X147.471 Y69.862 E4.586
G1 X148.151 Y70.706 E4.64008
G1 X148.811 Y71.545 E4.69333
G1 X148.939 Y71.713 E4.70387
G1 X149.76 Y72.832 E4.77311
G1 X150.283 Y73.566 E4.81808
G1 X150.4 Y73.736 E4.82837
G1 X151.204 Y74.946 E4.90085
G1 X151.761 Y75.81 E4.95214
G1 X151.961 Y76.138 E4.9713
G1 X152.554 Y77.132 E5.02905
G1 X153.087 Y78.053 E5.08214
G1 X153.29 Y78.423 E5.10319
G1 X153.84 Y79.45 E5.16131
G1 X154.316 Y80.371 E5.21304
G1 X154.428 Y80.599 E5.22571
G1 X154.958 Y81.708 E5.28703
G1 X155.355 Y82.567 E5.33424
G1 X155.443 Y82.767 E5.34514
G1 X155.998 Y84.086 E5.41654
G1 X156.373 Y85.016 E5.46657
G1 X156.441 Y85.193 E5.47603
G1 X156.923 Y86.502 E5.54562
G1 X157.285 Y87.537 E5.60032
G1 X157.362 Y87.772 E5.61266
G1 X157.737 Y88.966 E5.6751
G1 X158.002 Y89.851 E5.72119
G1 X158.058 Y90.049 E5.73145
G1 X158.418 Y91.413 E5.80183
G1 X158.664 Y92.403 E5.85273
G1 X158.751 Y92.784 E5.87222
G1 X159.013 Y94.004 E5.93448
G1 X159.189 Y94.887 E5.9794
G1 X159.267 Y95.327 E6.00169
G1 X159.459 Y96.489 E6.06045
G1 X159.604 Y97.446 E6.10874
G1 X159.663 Y97.897 E6.13143
G1 X159.799 Y99.066 E6.19015
G1 X159.899 Y100.031 E6.23855
G1 X159.933 Y100.442 E6.25912
G1 X160.016 Y101.617 E6.31789
G1 X160.069 Y102.546 E6.36431
G1 X160.087 Y103.058 E6.38987
G1 X160.115 Y104.252 E6.44946
G1 X160.124 Y105.064 E6.48997
G1 X160.116 Y105.717 E6.52255
G1 X160.09 Y106.774 E6.5753
G1 X160.058 Y107.676 E6.62033
G1 X160.024 Y108.265 E6.64977
G1 X159.944 Y109.395 E6.70628
G1 X159.864 Y110.336 E6.7534
G1 X159.815 Y110.802 E6.77678
G1 X159.678 Y111.965 E6.8352
G1 X159.553 Y112.912 E6.88286
G1 X159.493 Y113.305 E6.90269
G1 X159.298 Y114.475 E6.96187
G1 X159.132 Y115.412 E7.00934
G1 X159.042 Y115.863 E7.03229
G1 X158.781 Y117.078 E7.09428
G1 X158.565 Y118.015 E7.14226
G1 X158.52 Y118.201 E7.15181
G1 X158.163 Y119.557 E7.22176
G1 X157.912 Y120.458 E7.26842
G1 X157.854 Y120.655 E7.27867
G1 X157.432 Y121.999 E7.34895
G1 X157.145 Y122.875 E7.39494
G1 X156.96 Y123.401 E7.42276
G1 X156.568 Y124.467 E7.47942
G1 X156.205 Y125.413 E7.52997
G1 X156.132 Y125.596 E7.5398
G1 X155.578 Y126.913 E7.61109
G1 X155.184 Y127.809 E7.65992
G1 X155.036 Y128.128 E7.67746
G1 X154.5 Y129.245 E7.73927
G1 X154.041 Y130.17 E7.79079
G1 X153.893 Y130.454 E7.80677
G1 X153.312 Y131.537 E7.86808
G1 X152.793 Y132.469 E7.9213
G1 X152.677 Y132.667 E7.93275
G1 X152.026 Y133.755 E7.99601
G1 X151.529 Y134.559 E8.04317
G1 X151.422 Y134.727 E8.0531
G1 X150.618 Y135.939 E8.12566
G1 X150.097 Y136.7 E8.17168
G1 X149.834 Y137.068 E8.19424
G1 X149.137 Y138.017 E8.25299
G1 X148.461 Y138.909 E8.30882
G1 X148.298 Y139.114 E8.32189
G1 X147.515 Y140.082 E8.38401
G1 X146.949 Y140.762 E8.42815
G1 X146.651 Y141.106 E8.45085
G1 X145.828 Y142.029 E8.51255
G1 X145.257 Y142.656 E8.55486
G1 X144.856 Y143.078 E8.5839
G1 X144.075 Y143.877 E8.63964
G1 X143.403 Y144.545 E8.68691
G1 X142.999 Y144.931 E8.71479
G1 X142.216 Y145.659 E8.76813
G1 X141.51 Y146.301 E8.81574
G1 X141.347 Y146.444 E8.82656
G1 X140.263 Y147.364 E8.89749
G1 X139.389 Y148.082 E8.95392
G1 X139.216 Y148.218 E8.9649
G1 X138.243 Y148.968 E9.02619
G1 X137.452 Y149.56 E9.07548
G1 X137.285 Y149.681 E9.08577
G1 X136.095 Y150.512 E9.15818
G1 X135.24 Y151.09 E9.20967
G1 X134.992 Y151.25 E9.2244
G1 X133.967 Y151.895 E9.28481
G1 X133.018 Y152.473 E9.34025
G1 X132.774 Y152.614 E9.35431
G1 X131.732 Y153.205 E9.41408
G1 X130.943 Y153.639 E9.459
G1 X130.753 Y153.739 E9.46971
G1 X129.485 Y154.381 E9.54062
G1 X128.622 Y154.805 E9.58859
G1 X128.186 Y155.009 E9.61261
G1 X127.042 Y155.522 E9.67516
G1 X126.232 Y155.872 E9.71918
G1 X126.045 Y155.949 E9.72927
G1 X124.701 Y156.48 E9.80136
G1 X123.831 Y156.808 E9.84775
G1 X123.377 Y156.968 E9.87177
G1 X122.314 Y157.328 E9.92776
G1 X121.295 Y157.66 E9.98123
G1 X120.927 Y157.77 E10.00039
G1 X119.782 Y158.099 E10.05983
G1 X118.965 Y158.325 E10.10212
G1 X118.452 Y158.455 E10.12852
G1 X117.303 Y158.729 E10.18745
G1 X116.402 Y158.931 E10.23352
G1 X115.914 Y159.03 E10.25836
G1 X114.749 Y159.25 E10.31751
G1 X113.806 Y159.415 E10.36527
G1 X113.297 Y159.493 E10.39096
G1 X112.209 Y159.645 E10.44577
G1 X111.342 Y159.757 E10.48938
G1 X110.836 Y159.812 E10.51478
G1 X109.645 Y159.924 E10.57446
G1 X108.697 Y160 E10.6219
G1 X108.307 Y160.023 E10.6414
G1 X107.104 Y160.078 E10.70148
G1 X106.173 Y160.111 E10.74795
G1 X105.678 Y160.118 E10.77265
G1 X104.474 Y160.117 E10.83272
G1 X103.527 Y160.104 E10.87997
G1 X103.325 Y160.098 E10.89005
G1 X101.903 Y160.033 E10.96107
G1 X100.969 Y159.976 E11.00775
G1 X100.432 Y159.932 E11.03463
G1 X99.364 Y159.83 E11.08816
G1 X98.213 Y159.705 E11.14592
G1 X97.93 Y159.667 E11.16017
G1 X96.761 Y159.501 E11.21907
G1 X95.705 Y159.335 E11.2724
G1 X95.305 Y159.262 E11.29269
G1 X94.211 Y159.052 E11.34827
G1 X93.192 Y158.845 E11.40014
G1 X92.805 Y158.757 E11.41994
G1 X91.68 Y158.487 E11.47766
G1 X90.641 Y158.22 E11.53118
G1 X90.303 Y158.126 E11.54869
G1 X89.188 Y157.803 E11.6066
G1 X88.147 Y157.485 E11.66091
G1 X87.866 Y157.392 E11.67567
G1 X86.744 Y157.008 E11.73484
G1 X85.701 Y156.635 E11.7901
G1 X85.492 Y156.556 E11.80125
G1 X84.262 Y156.071 E11.86721
G1 X83.486 Y155.753 E11.90905
G1 X83.003 Y155.543 E11.93533
G1 X81.929 Y155.06 E11.99408
G1 X80.939 Y154.596 E12.04862
G1 X80.716 Y154.485 E12.06105
G1 X79.627 Y153.932 E12.12199
G1 X78.803 Y153.501 E12.16838
G1 X78.388 Y153.272 E12.19203
G1 X77.335 Y152.674 E12.25244
G1 X76.418 Y152.136 E12.30548
G1 X76.217 Y152.012 E12.31727
G1 X75.15 Y151.338 E12.38023
G1 X74.396 Y150.848 E12.42509
G1 X74.227 Y150.735 E12.43524
G1 X72.994 Y149.875 E12.51023
G1 X72.308 Y149.384 E12.55232
G1 X71.886 Y149.067 E12.57865
G1 X70.984 Y148.371 E12.6355
G1 X70.155 Y147.713 E12.6883
G1 X70.001 Y147.587 E12.69823
G1 X68.936 Y146.685 E12.76785
G1 X68.281 Y146.114 E12.81121
G1 X67.883 Y145.752 E12.83805
G1 X67.037 Y144.964 E12.89573
G1 X66.368 Y144.323 E12.94195
G1 X66.013 Y143.967 E12.96703
G1 X65.239 Y143.173 E13.02235
G1 X64.449 Y142.34 E13.07963
G1 X64.257 Y142.129 E13.09386
G1 X63.451 Y141.221 E13.15444
G1 X62.768 Y140.428 E13.20665
G1 X62.529 Y140.138 E13.2254
G1 X61.846 Y139.29 E13.27972
G1 X61.187 Y138.451 E13.33295
G1 X61.065 Y138.29 E13.34303
G1 X60.24 Y137.168 E13.41251
G1 X59.717 Y136.434 E13.45747
G1 X59.599 Y136.264 E13.46779
G1 X58.811 Y135.077 E13.53888
G1 X58.326 Y134.328 E13.58339
G1 X58.041 Y133.865 E13.61052
G1 X57.448 Y132.872 E13.66822
G1 X56.92 Y131.961 E13.72075
G1 X56.708 Y131.577 E13.74264
G1 X56.156 Y130.545 E13.80103
G1 X55.739 Y129.739 E13.8463
G1 X55.652 Y129.565 E13.85601
G1 X55.042 Y128.292 E13.92643
G1 X54.645 Y127.433 E13.97364
G1 X54.473 Y127.039 E13.99509
G1 X53.999 Y125.909 E14.05622
G1 X53.626 Y124.985 E14.10594
G1 X53.555 Y124.799 E14.11587
G1 X53.076 Y123.496 E14.18513
G1 X52.711 Y122.451 E14.24035
G1 X52.638 Y122.226 E14.25216
G1 X52.264 Y121.034 E14.31448
G1 X51.999 Y120.15 E14.36053
G1 X51.942 Y119.95 E14.3709
G1 X51.582 Y118.586 E14.44128
G1 X51.311 Y117.492 E14.49751
G1 X51.248 Y117.216 E14.51163
G1 X50.985 Y115.991 E14.57414
G1 X50.81 Y115.109 E14.619
G1 X50.733 Y114.673 E14.64109
G1 X50.541 Y113.511 E14.69985
G1 X50.396 Y112.554 E14.74814
G1 X50.338 Y112.103 E14.77083
G1 X50.201 Y110.934 E14.82955
G1 X50.101 Y109.968 E14.878
G1 X50.067 Y109.558 E14.89852
G1 X49.984 Y108.383 E14.95729
G1 X49.931 Y107.455 E15.00366
G1 X49.913 Y106.939 E15.02942
G1 X49.885 Y105.747 E15.08891
G1 X49.876 Y104.936 E15.12937
G1 X49.884 Y104.281 E15.16205
G1 X49.911 Y103.198 E15.2161
G1 X49.942 Y102.319 E15.25998
G1 X49.976 Y101.73 E15.28942
G1 X50.056 Y100.605 E15.34568
G1 X50.136 Y99.663 E15.39285
G1 X50.185 Y99.196 E15.41628
G1 X50.322 Y98.036 E15.47455
G1 X50.467 Y96.949 E15.52926
G1 X50.507 Y96.694 E15.54214
G1 X50.705 Y95.506 E15.60223
G1 X50.868 Y94.587 E15.64879
G1 X50.959 Y94.132 E15.67194
G1 X51.218 Y92.93 E15.73329
G1 X51.441 Y91.958 E15.78304
G1 X51.49 Y91.76 E15.79322
G1 X51.836 Y90.448 E15.86091
G1 X52.087 Y89.545 E15.90767
G1 X52.225 Y89.084 E15.93168
G1 X52.568 Y88.005 E15.98816
G1 X52.853 Y87.132 E16.03398
G1 X53.043 Y86.593 E16.06249
G1 X53.397 Y85.625 E16.11391
G1 X53.795 Y84.587 E16.16937
G1 X53.868 Y84.404 E16.1792
G1 X54.423 Y83.084 E16.25064
G1 X54.763 Y82.309 E16.29287
G1 X54.973 Y81.853 E16.31791
G1 X55.5 Y80.755 E16.37867
G1 X55.959 Y79.83 E16.43019
G1 X56.107 Y79.546 E16.44617
G1 X56.688 Y78.463 E16.50748
G1 X57.207 Y77.531 E16.56071
G1 X57.324 Y77.331 E16.57227
G1 X57.972 Y76.249 E16.63519
G1 X58.469 Y75.444 E16.68239
G1 X58.709 Y75.072 E16.70447
G1 X59.381 Y74.062 E16.765
G1 X59.901 Y73.302 E16.81094
G1 X60.166 Y72.932 E16.83364
G1 X60.863 Y71.983 E16.89239
G1 X61.458 Y71.196 E16.94161
G1 X61.579 Y71.041 E16.95142
G1 X62.485 Y69.918 E17.02341
G1 X63.051 Y69.238 E17.06755
G1 X63.349 Y68.894 E17.09025
G1 X64.172 Y67.971 E17.15195
G1 X64.743 Y67.344 E17.19426
G1 X65.147 Y66.919 E17.22351
G1 X65.922 Y66.127 E17.2788
M205 X10 Y10
G0 F6000 X66.204 Y66.411
M205 X8 Y8
G1 F1200 X66.97 Y65.65 E17.33266
G1 X67.274 Y65.361 E17.35359
G1 X68.057 Y64.633 E17.40693
G1 X68.763 Y63.992 E17.45451
G1 X68.912 Y63.861 E17.4644
G1 X69.991 Y62.945 E17.53502
G1 X70.772 Y62.302 E17.58549
G1 X70.915 Y62.188 E17.59461
G1 X71.997 Y61.352 E17.66283
G1 X72.788 Y60.76 E17.71212
G1 X72.944 Y60.647 E17.72173
G1 X74.134 Y59.816 E17.79414
G1 X74.97 Y59.252 E17.84446
G1 X75.223 Y59.088 E17.8595
G1 X76.241 Y58.447 E17.91952
G1 X77.183 Y57.873 E17.97455
G1 X77.424 Y57.734 E17.98843
G1 X78.466 Y57.143 E18.04819
G1 X79.255 Y56.71 E18.0931
G1 X79.719 Y56.469 E18.11918
G1 X80.712 Y55.967 E18.17469
G1 X81.667 Y55.5 E18.22773
G1 X81.976 Y55.357 E18.24472
G1 X83.124 Y54.842 E18.30749
G1 X84.044 Y54.447 E18.35744
G1 X84.246 Y54.365 E18.36832
G1 X85.441 Y53.895 E18.43238
G1 X86.311 Y53.567 E18.47877
G1 X86.752 Y53.411 E18.50211
G1 X87.816 Y53.05 E18.55816
G1 X88.821 Y52.723 E18.61089
G1 X89.185 Y52.614 E18.62984
G1 X90.325 Y52.286 E18.68903
G1 X91.142 Y52.06 E18.73132
G1 X91.641 Y51.934 E18.75699
G1 X92.78 Y51.662 E18.81542
G1 X93.682 Y51.459 E18.86154
G1 X94.166 Y51.361 E18.88618
G1 X95.32 Y51.144 E18.94476
G1 X96.256 Y50.98 E18.99217
G1 X96.759 Y50.903 E19.01756
G1 X97.842 Y50.751 E19.07212
G1 X98.709 Y50.639 E19.11573
G1 X99.271 Y50.579 E19.14393
G1 X100.387 Y50.475 E19.19985
G1 X101.464 Y50.39 E19.25375
G1 X101.711 Y50.376 E19.26609
G1 X102.91 Y50.322 E19.32597
G1 X103.999 Y50.285 E19.38033
G1 X104.326 Y50.282 E19.39665
G1 X105.437 Y50.282 E19.45207
G1 X106.468 Y50.296 E19.50352
G1 X106.658 Y50.301 E19.513
G1 X108.074 Y50.366 E19.58372
G1 X109.006 Y50.423 E19.6303
G1 X109.53 Y50.467 E19.65654
G1 X110.593 Y50.567 E19.7098
G1 X111.596 Y50.675 E19.76013
G1 X112.012 Y50.729 E19.78106
G1 X113.177 Y50.894 E19.83976
G1 X114.224 Y51.059 E19.89264
G1 X114.621 Y51.131 E19.91277
G1 X115.708 Y51.339 E19.96799
G1 X116.576 Y51.514 E20.01216
G1 X117.097 Y51.631 E20.0388
G1 X118.223 Y51.9 E20.09656
G1 X119.251 Y52.164 E20.14951
G1 X119.587 Y52.258 E20.16692
G1 X120.698 Y52.58 E20.22463
G1 X121.735 Y52.897 E20.27873
G1 X121.992 Y52.982 E20.29223
G1 X123.123 Y53.368 E20.35185
G1 X124.057 Y53.701 E20.40132
G1 X124.234 Y53.768 E20.41077
G1 X125.586 Y54.299 E20.48323
G1 X126.362 Y54.617 E20.52507
G1 X126.834 Y54.822 E20.55075
G1 X127.9 Y55.302 E20.60907
G1 X128.764 Y55.705 E20.65664
G1 X129.104 Y55.871 E20.67551
G1 X130.189 Y56.422 E20.73622
G1 X131.011 Y56.852 E20.78251
G1 X131.414 Y57.075 E20.80548
G1 X132.464 Y57.671 E20.86572
G1 X133.261 Y58.138 E20.91181
G1 X133.422 Y58.236 E20.92121
G1 X134.631 Y58.997 E20.99248
G1 X135.385 Y59.487 E21.03734
G1 X135.546 Y59.595 E21.04701
