;FLAVOR:Marlin
;TIME:2097
;Filament used: 1.69064m
;Layer height: 0.2
;MINX:73.613
;MINY:73.67
;MINZ:0.3
;MAXX:136.379
;MAXY:136.327
;MAXZ:2.5
;Generated with Cura_SteamEngine 4.12.1
M82 ;absolute extrusion mode
G21                                        ; metric values 
G90                                        ; absolute positioning 
M82                                        ; set extruder to absolute mode 
M107                                       ; start with the fan off 
M140 S60           ; Start heating the bed 
G4 S60                                     ; wait 1 minute 
M104 S210         ; start heating the hot end 
M190 S60           ; wait for bed 
M109 S210         ; wait for hotend 
M300 S1000 P500                            ; BEEP heating done 
G28 X0 Y10 Z0                              ; move X/Y to min endstops 
M420 S1                                    ; Enable leveling 
M420 Z2.0                                  ; Set leveling fading height to 2 mm 
G0 Z0.15                                   ; lift nozzle a bit 
G92 E0                                     ; zero the extruded length 
G1 X50 E25 F500                            ; Extrude 25mm of filament in a 5cm line. 
G92 E0                                     ; zero the extruded length again 
G1 E-2 F500                                ; Retract a little 
G1 X120 F4000                              ; Quickly wipe away from the filament line`
G92 E0
G92 E0
G1 F1500 E-6
;LAYER_COUNT:12
;LAYER:0
M106 S76.5
M205 X10 Y10
G1 F600 Z0.375
G0 F6000 X82.69 Y82.866 Z0.375
M205 X8 Y8
;TYPE:SKIRT
G1 F600 Z0.3
G1 F1500 E0
G1 F1200 X83.168 Y82.391 E0.03362
G1 X83.326 Y82.24 E0.04452
G1 X84.2 Y81.436 E0.10377
G1 X84.681 Y81.017 E0.1356
G1 X84.842 Y80.883 E0.14605
G1 X85.788 Y80.122 E0.20662
G1 X86.343 Y79.702 E0.24134
G1 X86.516 Y79.576 E0.25202
G1 X87.475 Y78.905 E0.31041
G1 X88.037 Y78.534 E0.34401
G1 X88.221 Y78.418 E0.35486
G1 X89.25 Y77.794 E0.4149
G1 X89.789 Y77.486 E0.44587
G1 X89.983 Y77.382 E0.45685
G1 X91.06 Y76.823 E0.51739
G1 X91.676 Y76.524 E0.55155
G1 X91.879 Y76.431 E0.56269
G1 X92.952 Y75.962 E0.62112
G1 X93.583 Y75.706 E0.65509
G1 X93.773 Y75.634 E0.66523
G1 X94.852 Y75.242 E0.7225
G1 X95.545 Y75.013 E0.75891
G1 X95.736 Y74.955 E0.76887
G1 X96.876 Y74.626 E0.82807
G1 X97.517 Y74.46 E0.8611
G1 X97.724 Y74.411 E0.87171
G1 X98.878 Y74.159 E0.93064
G1 X99.554 Y74.032 E0.96496
G1 X99.755 Y73.998 E0.97513
G1 X100.938 Y73.82 E1.03481
G1 X101.15 Y73.792 E1.04548
G1 X101.846 Y73.711 E1.08044
G1 X102.733 Y73.67 E1.12474
G1 X102.92 Y73.674 E1.13407
G1 X105.679 Y73.705 E1.27173
G1 X106.957 Y73.685 E1.3355
G1 X107.503 Y73.685 E1.36274
G1 X108.251 Y73.729 E1.40012
G1 X109.287 Y73.851 E1.45216
G1 X109.924 Y73.944 E1.48428
G1 X110.124 Y73.978 E1.4944
G1 X111.306 Y74.197 E1.55437
G1 X111.965 Y74.337 E1.58798
G1 X112.19 Y74.391 E1.59953
G1 X113.324 Y74.681 E1.65793
G1 X113.53 Y74.737 E1.66858
G1 X114.017 Y74.879 E1.69388
G1 X114.219 Y74.942 E1.70444
G1 X115.335 Y75.308 E1.76304
G1 X115.937 Y75.523 E1.79493
G1 X116.137 Y75.6 E1.80562
G1 X117.227 Y76.038 E1.86423
G1 X117.427 Y76.122 E1.87505
G1 X117.891 Y76.327 E1.90036
G1 X118.076 Y76.412 E1.91051
G1 X119.14 Y76.923 E1.9694
G1 X119.726 Y77.225 E2.00229
G1 X119.918 Y77.329 E2.01318
G1 X120.935 Y77.905 E2.0715
G1 X121.56 Y78.28 E2.10786
G1 X121.72 Y78.382 E2.11733
G1 X122.676 Y79.008 E2.17434
G1 X123.258 Y79.413 E2.20971
G1 X123.428 Y79.537 E2.22021
G1 X124.397 Y80.269 E2.2808
G1 X124.903 Y80.674 E2.31313
G1 X125.069 Y80.813 E2.32393
G1 X125.996 Y81.615 E2.38509
G1 X126.449 Y82.028 E2.41567
G1 X126.612 Y82.183 E2.42689
G1 X127.472 Y83.033 E2.48722
G1 X127.934 Y83.513 E2.52046
G1 X128.096 Y83.69 E2.53243
G1 X128.855 Y84.548 E2.58958
G1 X128.988 Y84.703 E2.59977
G1 X129.308 Y85.089 E2.62478
G1 X129.435 Y85.247 E2.63489
G1 X130.146 Y86.162 E2.69271
G1 X130.56 Y86.729 E2.72773
G1 X130.678 Y86.898 E2.73801
G1 X131.345 Y87.886 E2.79749
G1 X131.699 Y88.444 E2.83046
G1 X131.807 Y88.622 E2.84084
G1 X132.405 Y89.649 E2.90013
G1 X132.74 Y90.261 E2.93494
G1 X132.841 Y90.456 E2.9459
G1 X133.367 Y91.513 E3.0048
G1 X133.657 Y92.142 E3.03936
G1 X133.736 Y92.323 E3.04921
G1 X134.174 Y93.373 E3.10597
G1 X134.252 Y93.569 E3.11649
G1 X134.432 Y94.044 E3.14183
G1 X134.503 Y94.243 E3.15238
G1 X134.887 Y95.367 E3.21163
G1 X135.081 Y95.988 E3.24409
G1 X135.142 Y96.199 E3.25505
G1 X135.446 Y97.326 E3.31329
G1 X135.498 Y97.533 E3.32394
G1 X135.614 Y98.028 E3.3493
G1 X135.66 Y98.239 E3.36007
G1 X135.881 Y99.35 E3.41659
G1 X135.918 Y99.551 E3.42678
G1 X136.004 Y100.069 E3.45298
G1 X136.035 Y100.281 E3.46367
G1 X136.19 Y101.457 E3.52285
G1 X136.256 Y102.094 E3.5548
G1 X136.274 Y102.306 E3.56541
G1 X136.352 Y103.508 E3.62551
G1 X136.376 Y104.161 E3.65811
G1 X136.379 Y104.375 E3.66879
G1 X136.377 Y105.589 E3.72935
G1 X136.359 Y106.244 E3.76204
G1 X136.348 Y106.461 E3.77288
G1 X136.271 Y107.609 E3.83029
G1 X136.205 Y108.298 E3.86482
G1 X136.18 Y108.515 E3.87572
G1 X136.017 Y109.726 E3.93668
G1 X135.904 Y110.415 E3.97151
G1 X135.866 Y110.615 E3.98167
G1 X135.632 Y111.769 E4.04041
G1 X135.487 Y112.395 E4.07247
G1 X135.436 Y112.593 E4.08267
G1 X135.119 Y113.758 E4.14291
G1 X134.933 Y114.379 E4.17525
G1 X134.863 Y114.592 E4.18643
G1 X134.463 Y115.752 E4.24765
G1 X134.235 Y116.357 E4.27991
G1 X134.157 Y116.553 E4.29043
G1 X133.688 Y117.666 E4.35069
G1 X133.405 Y118.289 E4.38483
G1 X133.311 Y118.485 E4.39567
G1 X132.779 Y119.546 E4.45488
G1 X132.475 Y120.113 E4.48698
G1 X132.371 Y120.296 E4.49748
G1 X131.778 Y121.307 E4.55596
G1 X131.412 Y121.895 E4.59051
G1 X131.29 Y122.083 E4.60169
G1 X130.627 Y123.06 E4.6606
G1 X130.233 Y123.606 E4.69419
G1 X130.103 Y123.778 E4.70495
G1 X129.342 Y124.752 E4.76661
G1 X128.942 Y125.236 E4.79794
G1 X128.806 Y125.394 E4.80834
G1 X128.01 Y126.285 E4.86795
G1 X127.537 Y126.785 E4.90229
G1 X127.392 Y126.932 E4.91259
G1 X126.567 Y127.741 E4.97024
G1 X126.425 Y127.876 E4.98001
G1 X126.052 Y128.22 E5.00533
G1 X125.883 Y128.37 E5.0166
G1 X124.998 Y129.13 E5.0748
G1 X124.48 Y129.55 E5.10807
G1 X124.314 Y129.68 E5.11859
G1 X123.356 Y130.399 E5.17835
G1 X122.801 Y130.791 E5.21225
G1 X122.635 Y130.903 E5.22224
G1 X121.647 Y131.548 E5.2811
G1 X121.033 Y131.922 E5.31697
G1 X120.869 Y132.018 E5.32645
G1 X119.833 Y132.6 E5.38573
G1 X119.249 Y132.907 E5.41865
G1 X119.057 Y133.002 E5.42934
G1 X117.961 Y133.525 E5.48992
G1 X117.363 Y133.79 E5.52256
G1 X117.175 Y133.869 E5.53273
G1 X116.073 Y134.309 E5.59193
G1 X115.451 Y134.537 E5.62498
G1 X115.252 Y134.605 E5.63547
G1 X114.1 Y134.978 E5.69588
G1 X113.446 Y135.17 E5.72989
G1 X113.239 Y135.225 E5.74057
G1 X112.099 Y135.512 E5.79922
G1 X111.452 Y135.657 E5.8323
G1 X111.233 Y135.701 E5.84345
G1 X110.053 Y135.917 E5.9033
G1 X109.383 Y136.021 E5.93712
G1 X109.171 Y136.048 E5.94778
G1 X108.009 Y136.181 E6.00614
G1 X107.804 Y136.202 E6.01642
G1 X107.304 Y136.243 E6.04145
G1 X107.103 Y136.256 E6.05149
G1 X105.99 Y136.312 E6.10709
G1 X105.281 Y136.327 E6.14247
G1 X105.064 Y136.327 E6.1533
G1 X103.823 Y136.305 E6.21522
G1 X103.158 Y136.275 E6.24843
G1 X102.946 Y136.26 E6.25904
G1 X101.84 Y136.167 E6.31441
G1 X101.639 Y136.147 E6.32449
G1 X101.113 Y136.086 E6.3509
G1 X100.894 Y136.057 E6.36193
G1 X99.762 Y135.886 E6.41904
G1 X99.564 Y135.853 E6.42906
G1 X99.051 Y135.759 E6.45508
G1 X98.832 Y135.715 E6.46622
G1 X97.671 Y135.46 E6.52552
G1 X97.062 Y135.309 E6.55683
G1 X96.858 Y135.253 E6.56738
G1 X95.695 Y134.916 E6.62779
G1 X95.031 Y134.704 E6.66257
G1 X94.83 Y134.635 E6.67317
G1 X93.774 Y134.252 E6.72921
G1 X93.147 Y134.005 E6.76283
G1 X92.936 Y133.917 E6.77424
G1 X91.799 Y133.416 E6.83622
G1 X91.213 Y133.138 E6.86858
G1 X91.019 Y133.041 E6.8794
G1 X89.983 Y132.501 E6.93769
G1 X89.395 Y132.174 E6.97126
G1 X89.204 Y132.063 E6.98228
G1 X88.161 Y131.428 E7.0432
G1 X87.636 Y131.089 E7.07438
G1 X87.453 Y130.964 E7.08543
G1 X86.443 Y130.253 E7.14706
G1 X85.944 Y129.882 E7.17808
G1 X85.767 Y129.745 E7.18924
G1 X84.84 Y128.997 E7.24867
G1 X84.311 Y128.544 E7.28342
G1 X84.156 Y128.406 E7.29377
G1 X83.277 Y127.596 E7.35341
G1 X82.808 Y127.139 E7.38608
G1 X82.666 Y126.995 E7.39616
G1 X81.85 Y126.137 E7.45524
G1 X81.387 Y125.619 E7.4899
G1 X81.256 Y125.468 E7.49987
G1 X80.488 Y124.545 E7.55978
G1 X80.079 Y124.024 E7.59282
G1 X79.951 Y123.854 E7.60344
G1 X79.246 Y122.882 E7.66335
G1 X78.883 Y122.351 E7.69544
G1 X78.761 Y122.165 E7.70653
G1 X78.111 Y121.13 E7.76751
G1 X77.772 Y120.555 E7.80081
G1 X77.67 Y120.374 E7.81118
G1 X77.104 Y119.327 E7.87055
G1 X76.805 Y118.733 E7.90373
G1 X76.721 Y118.556 E7.91351
G1 X76.222 Y117.468 E7.97322
G1 X75.951 Y116.829 E8.00785
G1 X75.876 Y116.643 E8.01786
G1 X75.458 Y115.546 E8.07643
G1 X75.236 Y114.907 E8.11017
G1 X75.171 Y114.706 E8.12071
G1 X74.814 Y113.537 E8.18169
G1 X74.634 Y112.883 E8.21554
G1 X74.581 Y112.675 E8.22624
G1 X74.322 Y111.571 E8.28282
G1 X74.184 Y110.905 E8.31675
G1 X74.144 Y110.685 E8.32791
G1 X73.947 Y109.5 E8.38784
G1 X73.855 Y108.837 E8.42123
G1 X73.83 Y108.618 E8.43223
G1 X73.713 Y107.428 E8.49189
G1 X73.666 Y106.774 E8.5246
G1 X73.655 Y106.56 E8.53529
G1 X73.616 Y105.373 E8.59454
G1 X73.613 Y104.688 E8.62871
G1 X73.617 Y104.472 E8.63949
G1 X73.657 Y103.285 E8.69875
G1 X73.696 Y102.64 E8.73098
G1 X73.714 Y102.427 E8.74165
G1 X73.835 Y101.222 E8.80207
G1 X73.926 Y100.519 E8.83743
G1 X73.958 Y100.307 E8.84813
G1 X74.15 Y99.165 E8.9059
G1 X74.272 Y98.537 E8.93782
G1 X74.318 Y98.33 E8.9484
G1 X74.599 Y97.138 E9.0095
G1 X74.768 Y96.501 E9.04238
G1 X74.825 Y96.306 E9.05252
G1 X75.175 Y95.166 E9.11201
G1 X75.398 Y94.505 E9.14681
G1 X75.471 Y94.304 E9.15748
G1 X75.885 Y93.218 E9.21547
G1 X76.145 Y92.589 E9.24942
G1 X76.233 Y92.388 E9.26037
G1 X76.724 Y91.32 E9.31901
G1 X77.035 Y90.689 E9.35411
G1 X77.134 Y90.499 E9.3648
G1 X77.697 Y89.459 E9.4238
G1 X78.028 Y88.887 E9.45677
G1 X78.134 Y88.713 E9.46694
G1 X78.765 Y87.713 E9.52593
G1 X79.152 Y87.136 E9.56059
G1 X79.276 Y86.96 E9.57133
G1 X79.965 Y86.013 E9.62976
G1 X80.391 Y85.459 E9.66462
G1 X80.527 Y85.29 E9.67545
G1 X81.256 Y84.415 E9.73227
G1 X81.725 Y83.884 E9.76761
G1 X81.868 Y83.729 E9.77813
G1 X82.69 Y82.866 E9.83759
M205 X10 Y10
G0 F6000 X82.979 Y83.142
M205 X8 Y8
G1 F1200 X83.448 Y82.676 E9.87058
G1 X83.597 Y82.534 E9.88085
G1 X84.471 Y81.73 E9.94009
G1 X84.942 Y81.32 E9.97125
G1 X85.093 Y81.195 E9.98103
G1 X86.039 Y80.434 E10.0416
G1 X86.583 Y80.021 E10.07568
G1 X86.745 Y79.904 E10.08564
G1 X87.704 Y79.233 E10.14404
G1 X88.256 Y78.869 E10.17703
G1 X88.429 Y78.76 E10.18723
G1 X89.458 Y78.136 E10.24727
G1 X89.985 Y77.835 E10.27754
G1 X90.167 Y77.737 E10.28786
G1 X91.244 Y77.178 E10.3484
G1 X91.849 Y76.884 E10.38195
G1 X92.039 Y76.797 E10.39238
G1 X93.112 Y76.328 E10.4508
G1 X93.732 Y76.077 E10.48417
G1 X93.909 Y76.01 E10.49362
G1 X94.988 Y75.618 E10.55089
G1 X95.668 Y75.394 E10.58661
G1 X95.847 Y75.339 E10.59595
G1 X96.987 Y75.01 E10.65515
G1 X97.615 Y74.848 E10.6875
G1 X97.809 Y74.802 E10.69745
G1 X98.963 Y74.55 E10.75638
G1 X99.626 Y74.425 E10.79004
G1 X99.814 Y74.394 E10.79955
G1 X100.997 Y74.216 E10.85923
G1 X101.196 Y74.189 E10.86925
G1 X101.892 Y74.108 E10.90421
G1 X102.723 Y74.07 E10.94571
G1 X102.916 Y74.074 E10.95534
G1 X105.682 Y74.105 E11.09335
G1 X106.957 Y74.085 E11.15696
G1 X107.503 Y74.085 E11.1842
G1 X108.205 Y74.126 E11.21929
G1 X109.241 Y74.248 E11.27133
G1 X109.864 Y74.34 E11.30275
G1 X110.051 Y74.371 E11.3122
G1 X111.233 Y74.59 E11.37218
G1 X111.88 Y74.728 E11.40518
G1 X112.091 Y74.778 E11.416
G1 X113.225 Y75.068 E11.4744
G1 X113.418 Y75.121 E11.48438
G1 X113.905 Y75.263 E11.50969
G1 X114.095 Y75.322 E11.51962
G1 X115.211 Y75.688 E11.57821
G1 X115.8 Y75.899 E11.60943
G1 X115.988 Y75.971 E11.61947
G1 X117.078 Y76.409 E11.67808
G1 X117.266 Y76.488 E11.68825
G1 X117.73 Y76.693 E11.71356
G1 X117.903 Y76.772 E11.72305
G1 X118.967 Y77.283 E11.78193
G1 X119.542 Y77.58 E11.81422
G1 X119.721 Y77.677 E11.82438
G1 X120.738 Y78.252 E11.88267
G1 X121.351 Y78.621 E11.91836
G1 X121.501 Y78.716 E11.92722
G1 X122.457 Y79.342 E11.98423
G1 X123.027 Y79.74 E12.01891
G1 X123.187 Y79.856 E12.02877
G1 X124.156 Y80.588 E12.08936
G1 X124.652 Y80.985 E12.12106
G1 X124.808 Y81.115 E12.13119
G1 X125.735 Y81.917 E12.19234
G1 X126.178 Y82.322 E12.22229
G1 X126.331 Y82.468 E12.23284
G1 X127.191 Y83.318 E12.29316
G1 X127.644 Y83.789 E12.32577
G1 X127.796 Y83.955 E12.337
G1 X128.555 Y84.813 E12.39415
G1 X128.68 Y84.959 E12.40374
G1 X129 Y85.345 E12.42875
G1 X129.119 Y85.493 E12.43823
G1 X129.83 Y86.408 E12.49604
G1 X130.236 Y86.963 E12.53034
G1 X130.347 Y87.122 E12.54002
G1 X131.014 Y88.11 E12.59949
G1 X131.36 Y88.656 E12.63174
G1 X131.461 Y88.823 E12.64148
G1 X132.059 Y89.85 E12.70077
G1 X132.388 Y90.452 E12.73499
G1 X132.483 Y90.634 E12.74524
G1 X133.009 Y91.691 E12.80414
G1 X133.293 Y92.307 E12.83798
G1 X133.367 Y92.477 E12.84723
G1 X133.805 Y93.527 E12.90399
G1 X133.878 Y93.711 E12.91387
G1 X134.058 Y94.186 E12.93921
G1 X134.125 Y94.372 E12.94907
G1 X134.509 Y95.496 E13.00833
G1 X134.699 Y96.105 E13.04016
G1 X134.756 Y96.303 E13.05044
G1 X135.06 Y97.43 E13.10867
G1 X135.109 Y97.624 E13.11866
G1 X135.225 Y98.119 E13.14402
G1 X135.268 Y98.317 E13.15413
G1 X135.489 Y99.428 E13.21064
G1 X135.523 Y99.616 E13.22017
G1 X135.609 Y100.134 E13.24637
G1 X135.639 Y100.333 E13.25641
G1 X135.794 Y101.509 E13.31559
G1 X135.858 Y102.133 E13.34688
G1 X135.874 Y102.331 E13.35679
G1 X135.952 Y103.533 E13.41689
G1 X135.976 Y104.174 E13.44889
G1 X135.979 Y104.374 E13.45887
G1 X135.977 Y105.588 E13.51944
G1 X135.959 Y106.231 E13.55153
G1 X135.949 Y106.435 E13.56172
G1 X135.872 Y107.583 E13.61912
G1 X135.807 Y108.258 E13.65295
G1 X135.783 Y108.461 E13.66315
G1 X135.62 Y109.672 E13.72411
G1 X135.509 Y110.348 E13.75829
G1 X135.474 Y110.535 E13.76778
G1 X135.24 Y111.689 E13.82653
G1 X135.098 Y112.302 E13.85792
G1 X135.05 Y112.488 E13.8675
G1 X134.733 Y113.653 E13.92774
G1 X134.55 Y114.262 E13.95946
G1 X134.485 Y114.462 E13.96996
G1 X134.085 Y115.622 E14.03117
G1 X133.862 Y116.214 E14.06273
G1 X133.788 Y116.398 E14.07263
G1 X133.319 Y117.511 E14.13288
G1 X133.041 Y118.122 E14.16637
G1 X132.954 Y118.305 E14.17648
G1 X132.422 Y119.366 E14.2357
G1 X132.123 Y119.922 E14.26719
G1 X132.026 Y120.094 E14.27704
G1 X131.433 Y121.105 E14.33552
G1 X131.074 Y121.682 E14.36942
G1 X130.959 Y121.858 E14.37991
G1 X130.296 Y122.835 E14.43882
G1 X129.91 Y123.371 E14.47177
G1 X129.788 Y123.532 E14.48185
G1 X129.027 Y124.506 E14.54352
G1 X128.635 Y124.98 E14.5742
G1 X128.507 Y125.127 E14.58393
G1 X127.711 Y126.018 E14.64354
G1 X127.248 Y126.508 E14.67717
G1 X127.112 Y126.646 E14.68684
G1 X126.287 Y127.455 E14.74448
G1 X126.154 Y127.582 E14.75366
G1 X125.781 Y127.926 E14.77897
G1 X125.622 Y128.067 E14.78957
G1 X124.737 Y128.827 E14.84777
G1 X124.23 Y129.239 E14.88037
G1 X124.074 Y129.36 E14.89022
G1 X123.116 Y130.079 E14.94997
G1 X122.572 Y130.463 E14.9832
G1 X122.416 Y130.568 E14.99258
G1 X121.428 Y131.213 E15.05144
G1 X120.826 Y131.58 E15.08662
G1 X120.673 Y131.669 E15.09545
G1 X119.637 Y132.251 E15.15473
G1 X119.064 Y132.552 E15.18702
G1 X118.885 Y132.641 E15.197
G1 X117.789 Y133.164 E15.25758
G1 X117.203 Y133.424 E15.28957
G1 X117.027 Y133.497 E15.29907
G1 X115.925 Y133.937 E15.35827
G1 X115.315 Y134.161 E15.39069
G1 X115.129 Y134.224 E15.40049
G1 X113.977 Y134.597 E15.4609
G1 X113.335 Y134.785 E15.49428
G1 X113.142 Y134.837 E15.50425
G1 X112.002 Y135.124 E15.5629
G1 X111.366 Y135.267 E15.59542
G1 X111.161 Y135.308 E15.60585
G1 X109.981 Y135.524 E15.6657
G1 X109.324 Y135.625 E15.69886
G1 X109.125 Y135.651 E15.70887
G1 X107.963 Y135.784 E15.76722
G1 X107.771 Y135.803 E15.77685
G1 X107.271 Y135.844 E15.80188
G1 X107.083 Y135.856 E15.81128
G1 X105.97 Y135.912 E15.86688
G1 X105.275 Y135.927 E15.90156
G1 X105.071 Y135.927 E15.91173
G1 X103.83 Y135.905 E15.97366
G1 X103.178 Y135.875 E16.00622
G1 X102.979 Y135.862 E16.01617
G1 X101.873 Y135.769 E16.07154
G1 X101.685 Y135.75 E16.08097
G1 X101.159 Y135.689 E16.10739
G1 X100.954 Y135.662 E16.1177
G1 X99.822 Y135.491 E16.17482
G1 X99.637 Y135.46 E16.18418
G1 X99.124 Y135.366 E16.2102
G1 X98.918 Y135.324 E16.22069
G1 X97.757 Y135.069 E16.27999
G1 X97.16 Y134.921 E16.31068
