;FLAVOR:Marlin
;TIME:14823
;Filament used: 11.9971m
;Layer height: 0.2
;MINX:55.95
;MINY:68.949
;MINZ:0.3
;MAXX:154.05
;MAXY:141.05
;MAXZ:37.175
;Generated with Cura_SteamEngine 4.12.1
M82 ;absolute extrusion mode
G21                                        ; metric values 
G90                                        ; absolute positioning 
M82                                        ; set extruder to absolute mode 
M107                                       ; start with the fan off 
M140 S60           ; Start heating the bed 
G4 S60                                     ; wait 1 minute 
M104 S210         ; start heating the hot end 
M190 S60           ; wait for bed 
M109 S210         ; wait for hotend 
M300 S1000 P500                            ; BEEP heating done 
G28 X0 Y10 Z0                              ; move X/Y to min endstops 
M420 S1                                    ; Enable leveling 
M420 Z2.0                                  ; Set leveling fading height to 2 mm 
G0 Z0.15                                   ; lift nozzle a bit 
G92 E0                                     ; zero the extruded length 
G1 X50 E25 F500                            ; Extrude 25mm of filament in a 5cm line. 
G92 E0                                     ; zero the extruded length again 
G1 E-2 F500                                ; Retract a little 
G1 X120 F4000                              ; Quickly wipe away from the filament line`
G92 E0
G92 E0
G1 F1500 E-6
;LAYER_COUNT:185
;LAYER:0
M106 S76.5
M205 X10 Y10
G1 F600 Z0.375
G0 F6000 X58.419 Y70.314 Z0.375
M205 X8 Y8
;TYPE:SKIRT
G1 F600 Z0.3
G1 F1500 E0
G1 F1200 X59.006 Y69.906 E0.03566
G1 X59.635 Y69.566 E0.07134
G1 X60.299 Y69.298 E0.10706
G1 X60.988 Y69.106 E0.14274
G1 X61.694 Y68.993 E0.17842
G1 X62.497 Y68.952 E0.21853
G1 X62.677 Y68.949 E0.22751
G1 X147.035 Y68.951 E4.43615
G1 X147.734 Y68.961 E4.47103
G1 X148.447 Y69.011 E4.50668
G1 X149.15 Y69.14 E4.54234
G1 X149.835 Y69.347 E4.57804
G1 X150.492 Y69.63 E4.61373
G1 X151.114 Y69.984 E4.64944
G1 X151.692 Y70.405 E4.68511
G1 X152.22 Y70.887 E4.72078
G1 X152.69 Y71.426 E4.75646
G1 X153.098 Y72.014 E4.79217
G1 X153.437 Y72.644 E4.82786
G1 X153.704 Y73.307 E4.86352
G1 X153.895 Y73.997 E4.89924
G1 X154.008 Y74.703 E4.93491
G1 X154.048 Y75.506 E4.97502
G1 X154.05 Y75.671 E4.98325
G1 X154.05 Y133.992 E7.8929
G1 X154.041 Y134.72 E7.92922
G1 X153.992 Y135.434 E7.96492
G1 X153.864 Y136.137 E8.00057
G1 X153.658 Y136.822 E8.03626
G1 X153.377 Y137.48 E8.07196
G1 X153.024 Y138.102 E8.10764
G1 X152.604 Y138.682 E8.14336
G1 X152.122 Y139.21 E8.17903
G1 X151.585 Y139.682 E8.2147
G1 X150.997 Y140.09 E8.25041
G1 X150.368 Y140.431 E8.2861
G1 X149.705 Y140.699 E8.32178
G1 X149.017 Y140.891 E8.35742
G1 X148.31 Y141.006 E8.39315
G1 X147.499 Y141.047 E8.43366
G1 X147.32 Y141.05 E8.4426
G1 X62.974 Y141.049 E12.65063
G1 X62.276 Y141.04 E12.68546
G1 X61.563 Y140.991 E12.72112
G1 X60.859 Y140.863 E12.75681
G1 X60.174 Y140.657 E12.7925
G1 X59.517 Y140.375 E12.82817
G1 X58.895 Y140.022 E12.86385
G1 X58.316 Y139.602 E12.89954
G1 X57.787 Y139.12 E12.93524
G1 X57.316 Y138.582 E12.97092
G1 X56.908 Y137.995 E13.00658
G1 X56.568 Y137.365 E13.0423
G1 X56.3 Y136.702 E13.07797
G1 X56.108 Y136.013 E13.11366
G1 X55.994 Y135.307 E13.14934
G1 X55.961 Y134.802 E13.17459
G1 X55.95 Y134.284 E13.20043
G1 X55.95 Y75.954 E16.11053
G1 X55.959 Y75.273 E16.14451
G1 X56.008 Y74.56 E16.18016
G1 X56.137 Y73.856 E16.21587
G1 X56.343 Y73.171 E16.25156
G1 X56.625 Y72.514 E16.28723
G1 X56.978 Y71.892 E16.32291
G1 X57.398 Y71.313 E16.35859
G1 X57.88 Y70.785 E16.39426
G1 X58.419 Y70.314 E16.42997
M205 X10 Y10
G0 F6000 X58.805 Y70.523
M205 X8 Y8
G1 F1200 X59.386 Y70.146 E16.46453
G1 X60.006 Y69.838 E16.49906
G1 X60.658 Y69.604 E16.53362
G1 X61.333 Y69.446 E16.56821
G1 X62.189 Y69.36 E16.61113
G1 X62.677 Y69.349 E16.63548
G1 X147.029 Y69.351 E20.84382
G1 X147.728 Y69.361 E20.8787
G1 X148.419 Y69.41 E20.91326
G1 X149.099 Y69.54 E20.9478
G1 X149.76 Y69.746 E20.98234
G1 X150.393 Y70.028 E21.01691
G1 X150.989 Y70.38 E21.05145
G1 X151.54 Y70.799 E21.08598
G1 X152.04 Y71.279 E21.12056
G1 X152.481 Y71.813 E21.15511
G1 X152.857 Y72.394 E21.18964
G1 X153.165 Y73.014 E21.22418
G1 X153.398 Y73.666 E21.25872
G1 X153.555 Y74.341 E21.2933
G1 X153.64 Y75.206 E21.33666
G1 X153.65 Y75.671 E21.35986
G1 X153.65 Y133.987 E24.26926
G1 X153.641 Y134.715 E24.30558
G1 X153.592 Y135.406 E24.34014
G1 X153.464 Y136.087 E24.37471
G1 X153.259 Y136.748 E24.40924
G1 X152.979 Y137.381 E24.44377
G1 X152.627 Y137.978 E24.47835
G1 X152.21 Y138.53 E24.51286
G1 X151.731 Y139.031 E24.54745
G1 X151.198 Y139.473 E24.58199
G1 X150.617 Y139.851 E24.61657
G1 X149.997 Y140.159 E24.65111
G1 X149.346 Y140.394 E24.68564
G1 X148.671 Y140.552 E24.72023
G1 X147.809 Y140.639 E24.76345
G1 X147.32 Y140.65 E24.78785
G1 X62.98 Y140.65 E28.99559
G1 X62.282 Y140.641 E29.03042
G1 X61.591 Y140.592 E29.06498
G1 X60.91 Y140.463 E29.09956
G1 X60.249 Y140.258 E29.13409
G1 X59.616 Y139.977 E29.16864
G1 X59.019 Y139.626 E29.20319
G1 X58.467 Y139.208 E29.23773
G1 X57.967 Y138.729 E29.27228
G1 X57.525 Y138.195 E29.30686
G1 X57.148 Y137.615 E29.34137
G1 X56.84 Y136.994 E29.37596
G1 X56.605 Y136.343 E29.41049
G1 X56.448 Y135.668 E29.44506
G1 X56.361 Y134.792 E29.48898
G1 X56.35 Y134.284 E29.51433
G1 X56.35 Y75.96 E32.42413
G1 X56.359 Y75.279 E32.4581
G1 X56.408 Y74.588 E32.49266
G1 X56.536 Y73.907 E32.52724
G1 X56.742 Y73.246 E32.56178
G1 X57.023 Y72.613 E32.59633
G1 X57.375 Y72.017 E32.63086
G1 X57.793 Y71.465 E32.66541
G1 X58.272 Y70.965 E32.69995
G1 X58.805 Y70.523 E32.7345
M205 X10 Y10
G0 F6000 X58.662 Y71.151
M205 X8 Y8
G1 F1200 X59.19 Y70.74 E32.76788
G1 X59.764 Y70.395 E32.80129
G1 X60.374 Y70.121 E32.83465
G1 X61.013 Y69.922 E32.86804
G1 X61.67 Y69.8 E32.90138
G1 X62.2 Y69.76 E32.9279
G1 X62.677 Y69.749 E32.9517
G1 X147.023 Y69.751 E37.15974
G1 X147.722 Y69.761 E37.19462
G1 X148.389 Y69.81 E37.22798
G1 X149.046 Y69.939 E37.26139
G1 X149.682 Y70.145 E37.29474
G1 X150.29 Y70.425 E37.32814
G1 X150.859 Y70.776 E37.36149
G1 X151.383 Y71.193 E37.3949
G1 X151.853 Y71.669 E37.42827
G1 X152.263 Y72.197 E37.46163
G1 X152.608 Y72.771 E37.49504
G1 X152.881 Y73.382 E37.52842
G1 X153.079 Y74.02 E37.56175
G1 X153.2 Y74.678 E37.59513
G1 X153.24 Y75.216 E37.62204
G1 X153.25 Y75.671 E37.64475
G1 X153.25 Y133.982 E40.5539
G1 X153.241 Y134.71 E40.59022
G1 X153.192 Y135.378 E40.62364
G1 X153.065 Y136.034 E40.65697
G1 X152.86 Y136.671 E40.69036
G1 X152.581 Y137.279 E40.72373
G1 X152.231 Y137.849 E40.7571
G1 X151.815 Y138.374 E40.79052
G1 X151.34 Y138.845 E40.82389
G1 X150.813 Y139.256 E40.85724
G1 X150.24 Y139.602 E40.89063
G1 X149.63 Y139.876 E40.92399
G1 X148.991 Y140.076 E40.9574
G1 X148.333 Y140.198 E40.99079
G1 X147.798 Y140.239 E41.01756
G1 X147.32 Y140.25 E41.04141
G1 X62.985 Y140.25 E45.2489
G1 X62.287 Y140.241 E45.28373
G1 X61.62 Y140.192 E45.31709
G1 X60.963 Y140.064 E45.35049
G1 X60.326 Y139.859 E45.38387
G1 X59.718 Y139.579 E45.41727
G1 X59.148 Y139.229 E45.45064
G1 X58.624 Y138.813 E45.48402
G1 X58.153 Y138.338 E45.51739
G1 X57.742 Y137.81 E45.55077
G1 X57.397 Y137.237 E45.58414
G1 X57.123 Y136.627 E45.6175
G1 X56.923 Y135.988 E45.65091
G1 X56.802 Y135.33 E45.68429
G1 X56.761 Y134.782 E45.7117
G1 X56.75 Y134.284 E45.73655
G1 X56.749 Y75.965 E48.6461
G1 X56.758 Y75.284 E48.68008
G1 X56.807 Y74.617 E48.71344
G1 X56.935 Y73.96 E48.74684
G1 X57.141 Y73.323 E48.78024
G1 X57.421 Y72.716 E48.81359
G1 X57.771 Y72.146 E48.84696
G1 X58.187 Y71.622 E48.88034
G1 X58.662 Y71.151 E48.91371
M205 X10 Y10
G0 F6000 X59.051 Y71.345
M205 X8 Y8
G1 F1200 X59.573 Y70.967 E48.94587
G1 X60.138 Y70.656 E48.97804
G1 X60.737 Y70.417 E49.01022
G1 X61.361 Y70.255 E49.04238
G1 X62.211 Y70.16 E49.08505
G1 X62.677 Y70.149 E49.10831
G1 X147.017 Y70.151 E53.31605
G1 X147.716 Y70.161 E53.35092
G1 X148.359 Y70.21 E53.3831
G1 X148.991 Y70.338 E53.41527
G1 X149.602 Y70.544 E53.44743
G1 X150.183 Y70.823 E53.47959
G1 X150.725 Y71.172 E53.51175
G1 X151.219 Y71.586 E53.54391
G1 X151.659 Y72.058 E53.5761
G1 X152.036 Y72.58 E53.60823
G1 X152.347 Y73.145 E53.6404
G1 X152.585 Y73.744 E53.67256
G1 X152.747 Y74.368 E53.70472
G1 X152.84 Y75.226 E53.74778
G1 X152.85 Y75.671 E53.76998
G1 X152.85 Y133.977 E56.67888
G1 X152.841 Y134.705 E56.71521
G1 X152.793 Y135.348 E56.74737
G1 X152.666 Y135.98 E56.77954
G1 X152.461 Y136.592 E56.81174
G1 X152.183 Y137.173 E56.84387
G1 X151.835 Y137.716 E56.87605
G1 X151.422 Y138.211 E56.90821
G1 X150.951 Y138.651 E56.94036
G1 X150.43 Y139.03 E56.97251
G1 X149.865 Y139.341 E57.00468
G1 X149.266 Y139.58 E57.03686
G1 X148.643 Y139.744 E57.069
G1 X147.787 Y139.839 E57.11197
G1 X147.32 Y139.85 E57.13527
G1 X62.99 Y139.85 E61.34251
G1 X62.292 Y139.841 E61.37734
G1 X61.649 Y139.792 E61.40951
G1 X61.017 Y139.665 E61.44167
G1 X60.406 Y139.46 E61.47383
G1 X59.825 Y139.182 E61.50596
G1 X59.282 Y138.833 E61.53816
G1 X58.787 Y138.42 E61.57033
G1 X58.347 Y137.949 E61.60248
G1 X57.968 Y137.427 E61.63466
G1 X57.657 Y136.863 E61.6668
G1 X57.419 Y136.264 E61.69895
G1 X57.256 Y135.64 E61.73113
G1 X57.161 Y134.772 E61.77469
G1 X57.15 Y134.284 E61.79905
G1 X57.149 Y75.97 E64.70834
G1 X57.158 Y75.289 E64.74232
G1 X57.207 Y74.646 E64.77449
G1 X57.335 Y74.015 E64.80662
G1 X57.539 Y73.403 E64.8388
G1 X57.818 Y72.822 E64.87096
G1 X58.167 Y72.28 E64.90312
G1 X58.58 Y71.785 E64.93528
G1 X59.051 Y71.345 E64.96744
M205 X10 Y10
G1 F1500 E58.96744
G1 F600 Z0.375
;MESH:showtable_case v7.3mf
G0 F6000 X146.65 Y133.65 Z0.375
M205 X8 Y8
;TYPE:WALL-INNER
G1 F600 Z0.3
G1 F1500 E64.96744
G1 F1200 X63.35 Y133.65 E69.12329
G1 X63.349 Y76.349 E71.98205
G1 X146.65 Y76.35 E76.13795
G1 X146.65 Y133.65 E78.99666
M205 X10 Y10
G0 F6000 X147.05 Y134.05
M205 X8 Y8
G1 F1200 X62.95 Y134.05 E83.19243
G1 X62.949 Y75.949 E86.0911
G1 X147.05 Y75.95 E90.28691
G1 X147.05 Y134.05 E93.18553
M205 X10 Y10
G0 F6000 X147.45 Y134.45
M205 X8 Y8
;TYPE:WALL-OUTER
G1 F1200 X62.55 Y134.45 E97.42121
G1 X62.549 Y75.549 E100.35979
G1 X147.45 Y75.55 E104.59552
G1 X147.45 Y134.45 E107.53406
M205 X10 Y10
G0 F6000 X147.25 Y134.45
G0 X147.01 Y134.01
G0 X146.26 Y133.26
M205 X8 Y8
;TYPE:SKIN
G1 F1200 X63.74 Y133.26 E111.651
G1 X63.739 Y76.739 E114.47084
G1 X146.26 Y76.74 E118.58783
G1 X146.26 Y133.26 E121.40762
M205 X10 Y10
G1 F1500 E115.40762
G1 F600 Z0.375
G0 F6000 X146.079 Y77.065 Z0.375
M205 X8 Y8
G1 F600 Z0.3
G1 F1500 E121.40762
G1 F1200 X145.933 Y76.919 E121.41792
M205 X10 Y10
G0 F6000 X145.367 Y76.919
M205 X8 Y8
G1 F1200 X146.079 Y77.631 E121.46816
M205 X10 Y10
G0 F6000 X146.079 Y78.196
M205 X8 Y8
G1 F1200 X144.802 Y76.919 E121.55826
M205 X10 Y10
G0 F6000 X144.236 Y76.919
M205 X8 Y8
G1 F1200 X146.079 Y78.762 E121.68829
M205 X10 Y10
G0 F6000 X146.079 Y79.328
M205 X8 Y8
G1 F1200 X143.67 Y76.919 E121.85826
M205 X10 Y10
G0 F6000 X143.104 Y76.919
M205 X8 Y8
G1 F1200 X146.079 Y79.893 E122.06813
M205 X10 Y10
G0 F6000 X146.079 Y80.459
M205 X8 Y8
G1 F1200 X142.539 Y76.919 E122.31789
M205 X10 Y10
G0 F6000 X141.973 Y76.919
M205 X8 Y8
G1 F1200 X146.079 Y81.025 E122.60759
M205 X10 Y10
G0 F6000 X146.079 Y81.59
M205 X8 Y8
G1 F1200 X141.407 Y76.919 E122.93719
M205 X10 Y10
G0 F6000 X140.842 Y76.919
M205 X8 Y8
G1 F1200 X146.079 Y82.156 E123.30669
M205 X10 Y10
G0 F6000 X146.079 Y82.722
M205 X8 Y8
G1 F1200 X140.276 Y76.919 E123.71613
M205 X10 Y10
G0 F6000 X139.71 Y76.919
M205 X8 Y8
G1 F1200 X146.079 Y83.287 E124.16546
M205 X10 Y10
G0 F6000 X146.079 Y83.853
M205 X8 Y8
G1 F1200 X139.145 Y76.919 E124.65469
M205 X10 Y10
G0 F6000 X138.579 Y76.919
M205 X8 Y8
G1 F1200 X146.079 Y84.419 E125.18385
M205 X10 Y10
G0 F6000 X146.079 Y84.985
M205 X8 Y8
G1 F1200 X138.013 Y76.919 E125.75295
M205 X10 Y10
G0 F6000 X137.448 Y76.919
M205 X8 Y8
G1 F1200 X146.079 Y85.55 E126.36192
M205 X10 Y10
G0 F6000 X146.079 Y86.116
M205 X8 Y8
G1 F1200 X136.882 Y76.919 E127.01082
M205 X10 Y10
G0 F6000 X136.316 Y76.919
M205 X8 Y8
G1 F1200 X146.079 Y86.682 E127.69965
M205 X10 Y10
G0 F6000 X146.079 Y87.247
M205 X8 Y8
G1 F1200 X135.751 Y76.919 E128.42834
M205 X10 Y10
G0 F6000 X135.185 Y76.919
M205 X8 Y8
G1 F1200 X146.079 Y87.813 E129.19697
M205 X10 Y10
G0 F6000 X146.079 Y88.379
M205 X8 Y8
G1 F1200 X134.619 Y76.919 E130.00554
M205 X10 Y10
G0 F6000 X134.054 Y76.919
M205 X8 Y8
G1 F1200 X146.079 Y88.944 E130.85397
M205 X10 Y10
G0 F6000 X146.079 Y89.51
M205 X8 Y8
G1 F1200 X133.488 Y76.919 E131.74233
M205 X10 Y10
G0 F6000 X132.922 Y76.919
M205 X8 Y8
G1 F1200 X146.079 Y90.076 E132.67063
M205 X10 Y10
G0 F6000 X146.079 Y90.641
M205 X8 Y8
G1 F1200 X132.356 Y76.919 E133.63883
M205 X10 Y10
G0 F6000 X131.791 Y76.919
M205 X8 Y8
G1 F1200 X146.079 Y91.207 E134.64692
M205 X10 Y10
G0 F6000 X146.079 Y91.773
M205 X8 Y8
G1 F1200 X131.225 Y76.919 E135.69495
M205 X10 Y10
G0 F6000 X130.659 Y76.919
M205 X8 Y8
G1 F1200 X146.079 Y92.338 E136.78288
M205 X10 Y10
G0 F6000 X146.079 Y92.904
M205 X8 Y8
G1 F1200 X130.094 Y76.919 E137.91071
M205 X10 Y10
G0 F6000 X129.528 Y76.919
M205 X8 Y8
G1 F1200 X146.079 Y93.47 E139.07847
M205 X10 Y10
G0 F6000 X146.079 Y94.036
M205 X8 Y8
G1 F1200 X128.962 Y76.919 E140.28617
M205 X10 Y10
G0 F6000 X128.397 Y76.919
M205 X8 Y8
G1 F1200 X146.079 Y94.601 E141.53373
M205 X10 Y10
G0 F6000 X146.079 Y95.167
M205 X8 Y8
G1 F1200 X127.831 Y76.919 E142.82122
M205 X10 Y10
G0 F6000 X127.265 Y76.919
M205 X8 Y8
G1 F1200 X146.079 Y95.733 E144.14865
M205 X10 Y10
G0 F6000 X146.079 Y96.298
M205 X8 Y8
G1 F1200 X126.7 Y76.919 E145.51595
M205 X10 Y10
G0 F6000 X126.134 Y76.919
M205 X8 Y8
G1 F1200 X146.079 Y96.864 E146.92317
M205 X10 Y10
G0 F6000 X146.079 Y97.43
M205 X8 Y8
G1 F1200 X125.568 Y76.919 E148.37033
M205 X10 Y10
G0 F6000 X125.003 Y76.919
M205 X8 Y8
G1 F1200 X146.079 Y97.995 E149.85736
M205 X10 Y10
G0 F6000 X146.079 Y98.561
M205 X8 Y8
G1 F1200 X124.437 Y76.919 E151.38432
M205 X10 Y10
G0 F6000 X123.871 Y76.919
M205 X8 Y8
G1 F1200 X146.079 Y99.127 E152.95121
M205 X10 Y10
G0 F6000 X146.079 Y99.692
M205 X8 Y8
G1 F1200 X123.305 Y76.919 E154.55801
M205 X10 Y10
G0 F6000 X122.74 Y76.919
M205 X8 Y8
G1 F1200 X146.079 Y100.258 E156.2047
M205 X10 Y10
G0 F6000 X146.079 Y100.824
M205 X8 Y8
G1 F1200 X122.174 Y76.919 E157.89133
M205 X10 Y10
G0 F6000 X121.608 Y76.919
M205 X8 Y8
G1 F1200 X146.079 Y101.389 E159.61785
M205 X10 Y10
G0 F6000 X146.079 Y101.955
M205 X8 Y8
G1 F1200 X121.043 Y76.919 E161.38428
M205 X10 Y10
G0 F6000 X120.477 Y76.919
M205 X8 Y8
G1 F1200 X146.079 Y102.521 E163.19064
M205 X10 Y10
G0 F6000 X146.079 Y103.086
M205 X8 Y8
G1 F1200 X119.911 Y76.919 E165.0369
M205 X10 Y10
G0 F6000 X119.346 Y76.919
M205 X8 Y8
G1 F1200 X146.079 Y103.652 E166.92305
M205 X10 Y10
G0 F6000 X146.079 Y104.218
M205 X8 Y8
G1 F1200 X118.78 Y76.919 E168.84915
M205 X10 Y10
G0 F6000 X118.214 Y76.919
M205 X8 Y8
G1 F1200 X146.079 Y104.784 E170.81517
M205 X10 Y10
G0 F6000 X146.079 Y105.349
M205 X8 Y8
G1 F1200 X117.649 Y76.919 E172.82106
M205 X10 Y10
G0 F6000 X117.083 Y76.919
M205 X8 Y8
G1 F1200 X146.079 Y105.915 E174.86689
M205 X10 Y10
G0 F6000 X146.079 Y106.481
M205 X8 Y8
G1 F1200 X116.517 Y76.919 E176.95264
M205 X10 Y10
G0 F6000 X115.952 Y76.919
M205 X8 Y8
G1 F1200 X146.079 Y107.046 E179.07827
M205 X10 Y10
G0 F6000 X146.079 Y107.612
M205 X8 Y8
G1 F1200 X115.386 Y76.919 E181.24382
M205 X10 Y10
G0 F6000 X114.82 Y76.919
M205 X8 Y8
G1 F1200 X146.079 Y108.178 E183.44932
M205 X10 Y10
G0 F6000 X146.079 Y108.743
M205 X8 Y8
G1 F1200 X114.255 Y76.919 E185.69467
M205 X10 Y10
G0 F6000 X113.689 Y76.919
M205 X8 Y8
G1 F1200 X146.079 Y109.309 E187.97996
M205 X10 Y10
G0 F6000 X146.079 Y109.875
M205 X8 Y8
G1 F1200 X113.123 Y76.919 E190.30518
M205 X10 Y10
G0 F6000 X112.557 Y76.919
M205 X8 Y8
G1 F1200 X146.079 Y110.44 E192.67031
M205 X10 Y10
G0 F6000 X146.079 Y111.006
M205 X8 Y8
G1 F1200 X111.992 Y76.919 E195.07533
M205 X10 Y10
G0 F6000 X111.426 Y76.919
M205 X8 Y8
G1 F1200 X146.079 Y111.572 E197.52029
M205 X10 Y10
G0 F6000 X146.079 Y112.137
M205 X8 Y8
G1 F1200 X110.86 Y76.919 E200.00514
M205 X10 Y10
G0 F6000 X110.295 Y76.919
M205 X8 Y8
G1 F1200 X146.079 Y112.703 E202.52989
M205 X10 Y10
G0 F6000 X146.079 Y113.269
M205 X8 Y8
G1 F1200 X109.729 Y76.919 E205.09458
M205 X10 Y10
G0 F6000 X109.163 Y76.919
M205 X8 Y8
G1 F1200 X146.079 Y113.834 E207.69917
M205 X10 Y10
