;FLAVOR:Marlin
;TIME:4348
;Filament used: 3.06694m
;Layer height: 0.2
;MINX:83.95
;MINY:68.949
;MINZ:0.3
;MAXX:126.4
;MAXY:141.05
;MAXZ:30.175
;Generated with Cura_SteamEngine 4.12.1
M82 ;absolute extrusion mode
G21                                        ; metric values 
G90                                        ; absolute positioning 
M82                                        ; set extruder to absolute mode 
M107                                       ; start with the fan off 
M140 S60           ; Start heating the bed 
G4 S60                                     ; wait 1 minute 
M104 S210         ; start heating the hot end 
M190 S60           ; wait for bed 
M109 S210         ; wait for hotend 
M300 S1000 P500                            ; BEEP heating done 
G28 X0 Y10 Z0                              ; move X/Y to min endstops 
M420 S1                                    ; Enable leveling 
M420 Z2.0                                  ; Set leveling fading height to 2 mm 
G0 Z0.15                                   ; lift nozzle a bit 
G92 E0                                     ; zero the extruded length 
G1 X50 E25 F500                            ; Extrude 25mm of filament in a 5cm line. 
G92 E0                                     ; zero the extruded length again 
G1 E-2 F500                                ; Retract a little 
G1 X120 F4000                              ; Quickly wipe away from the filament line`
G92 E0
G92 E0
G1 F1500 E-6
;LAYER_COUNT:150
;LAYER:0
M106 S76.5
M205 X10 Y10
G1 F600 Z0.375
G0 F6000 X85.399 Y71.312 Z0.375
M205 X8 Y8
;TYPE:SKIRT
G1 F600 Z0.3
G1 F1500 E0
G1 F1200 X85.882 Y70.784 E0.0357
G1 X86.42 Y70.313 E0.07137
G1 X87.008 Y69.905 E0.10708
G1 X87.637 Y69.565 E0.14275
G1 X88.301 Y69.298 E0.17846
G1 X88.99 Y69.106 E0.21414
G1 X89.696 Y68.992 E0.24982
G1 X90.497 Y68.952 E0.28983
G1 X90.677 Y68.949 E0.29881
G1 X119.293 Y68.949 E1.72647
G1 X120.083 Y68.96 E1.76589
G1 X120.796 Y69.01 E1.80155
G1 X121.5 Y69.139 E1.83726
G1 X122.184 Y69.347 E1.87292
G1 X122.841 Y69.629 E1.90859
G1 X123.463 Y69.983 E1.9443
G1 X124.041 Y70.404 E1.97997
G1 X124.569 Y70.887 E2.01567
G1 X125.039 Y71.425 E2.05132
G1 X125.447 Y72.013 E2.08702
G1 X125.786 Y72.643 E2.12271
G1 X126.053 Y73.306 E2.15837
G1 X126.244 Y73.996 E2.19409
G1 X126.357 Y74.702 E2.22976
G1 X126.397 Y75.488 E2.26903
G1 X126.4 Y75.672 E2.27821
G1 X126.4 Y133.993 E5.18785
G1 X126.391 Y134.72 E5.22413
G1 X126.342 Y135.434 E5.25983
G1 X126.214 Y136.138 E5.29553
G1 X126.008 Y136.823 E5.33122
G1 X125.727 Y137.48 E5.36687
G1 X125.374 Y138.103 E5.40259
G1 X124.954 Y138.682 E5.43828
G1 X124.472 Y139.21 E5.47394
G1 X123.935 Y139.682 E5.50961
G1 X123.347 Y140.09 E5.54532
G1 X122.718 Y140.431 E5.58102
G1 X122.055 Y140.699 E5.61669
G1 X121.366 Y140.891 E5.65238
G1 X120.66 Y141.006 E5.68806
G1 X119.849 Y141.047 E5.72858
G1 X119.67 Y141.05 E5.73751
G1 X90.974 Y141.049 E7.16916
G1 X90.276 Y141.04 E7.20398
G1 X89.563 Y140.991 E7.23964
G1 X88.859 Y140.863 E7.27534
G1 X88.174 Y140.657 E7.31102
G1 X87.517 Y140.375 E7.34669
G1 X86.895 Y140.022 E7.38237
G1 X86.316 Y139.602 E7.41806
G1 X85.787 Y139.12 E7.45376
G1 X85.316 Y138.582 E7.48944
G1 X84.908 Y137.995 E7.5251
G1 X84.568 Y137.365 E7.56082
G1 X84.3 Y136.702 E7.5965
G1 X84.108 Y136.013 E7.63218
G1 X83.994 Y135.307 E7.66786
G1 X83.961 Y134.802 E7.69311
G1 X83.95 Y134.284 E7.71896
G1 X83.95 Y75.936 E10.62995
G1 X83.959 Y75.271 E10.66313
G1 X84.008 Y74.558 E10.69879
G1 X84.137 Y73.854 E10.73449
G1 X84.344 Y73.17 E10.77015
G1 X84.626 Y72.512 E10.80586
G1 X84.979 Y71.89 E10.84154
G1 X85.399 Y71.312 E10.87719
M205 X10 Y10
G0 F6000 X85.794 Y71.463
M205 X8 Y8
G1 F1200 X86.273 Y70.963 E10.91173
G1 X86.807 Y70.522 E10.94629
G1 X87.388 Y70.145 E10.98084
G1 X88.008 Y69.837 E11.01538
G1 X88.66 Y69.603 E11.04994
G1 X89.334 Y69.446 E11.08446
G1 X90.189 Y69.36 E11.12733
G1 X90.677 Y69.349 E11.15169
G1 X119.293 Y69.349 E12.57935
G1 X120.077 Y69.36 E12.61846
G1 X120.768 Y69.409 E12.65302
G1 X121.448 Y69.539 E12.68756
G1 X122.109 Y69.745 E12.72211
G1 X122.742 Y70.027 E12.75668
G1 X123.338 Y70.379 E12.79121
G1 X123.889 Y70.798 E12.82575
G1 X124.389 Y71.278 E12.86033
G1 X124.83 Y71.812 E12.89488
G1 X125.207 Y72.393 E12.92943
G1 X125.514 Y73.014 E12.96399
G1 X125.747 Y73.666 E12.99854
G1 X125.904 Y74.34 E13.03306
G1 X125.989 Y75.187 E13.07553
G1 X126 Y75.672 E13.09973
G1 X126 Y133.988 E16.00913
G1 X125.991 Y134.715 E16.0454
G1 X125.942 Y135.406 E16.07996
G1 X125.814 Y136.087 E16.11453
G1 X125.609 Y136.748 E16.14906
G1 X125.329 Y137.381 E16.18359
G1 X124.977 Y137.978 E16.21817
G1 X124.56 Y138.531 E16.25272
G1 X124.081 Y139.031 E16.28727
G1 X123.548 Y139.473 E16.32181
G1 X122.967 Y139.851 E16.35639
G1 X122.347 Y140.159 E16.39093
G1 X121.696 Y140.394 E16.42546
G1 X121.021 Y140.552 E16.46005
G1 X120.159 Y140.639 E16.50327
G1 X119.67 Y140.65 E16.52768
G1 X90.98 Y140.65 E17.95903
G1 X90.282 Y140.641 E17.99385
G1 X89.591 Y140.592 E18.02841
G1 X88.91 Y140.463 E18.06299
G1 X88.249 Y140.258 E18.09752
G1 X87.616 Y139.977 E18.13207
G1 X87.019 Y139.626 E18.16662
G1 X86.467 Y139.208 E18.20117
G1 X85.967 Y138.729 E18.23571
G1 X85.525 Y138.195 E18.27029
G1 X85.148 Y137.615 E18.30481
G1 X84.84 Y136.994 E18.33939
G1 X84.605 Y136.343 E18.37392
G1 X84.448 Y135.668 E18.40849
G1 X84.361 Y134.792 E18.45241
G1 X84.35 Y134.284 E18.47776
G1 X84.35 Y75.942 E21.38846
G1 X84.359 Y75.277 E21.42164
G1 X84.408 Y74.586 E21.4562
G1 X84.536 Y73.906 E21.49072
G1 X84.743 Y73.244 E21.52532
G1 X85.024 Y72.611 E21.55988
G1 X85.376 Y72.015 E21.59441
G1 X85.794 Y71.463 E21.62895
M205 X10 Y10
G0 F6000 X86.188 Y71.62
M205 X8 Y8
G1 F1200 X86.663 Y71.15 E21.66229
G1 X87.192 Y70.739 E21.69571
G1 X87.765 Y70.394 E21.72908
G1 X88.376 Y70.121 E21.76247
G1 X89.014 Y69.922 E21.79581
G1 X89.672 Y69.8 E21.8292
G1 X90.2 Y69.76 E21.85562
G1 X90.677 Y69.749 E21.87942
G1 X119.293 Y69.749 E23.30708
G1 X120.071 Y69.76 E23.3459
G1 X120.738 Y69.809 E23.37926
G1 X121.395 Y69.938 E23.41267
G1 X122.031 Y70.144 E23.44602
G1 X122.639 Y70.425 E23.47944
G1 X123.208 Y70.775 E23.51276
G1 X123.732 Y71.192 E23.54617
G1 X124.202 Y71.668 E23.57955
G1 X124.612 Y72.196 E23.6129
G1 X124.957 Y72.77 E23.64631
G1 X125.23 Y73.381 E23.6797
G1 X125.428 Y74.02 E23.71307
G1 X125.549 Y74.678 E23.74645
G1 X125.589 Y75.198 E23.77247
G1 X125.6 Y75.672 E23.79613
G1 X125.6 Y133.983 E26.70527
G1 X125.591 Y134.71 E26.74155
G1 X125.542 Y135.378 E26.77496
G1 X125.415 Y136.034 E26.8083
G1 X125.21 Y136.671 E26.84168
G1 X124.931 Y137.279 E26.87506
G1 X124.581 Y137.849 E26.90843
G1 X124.165 Y138.374 E26.94185
G1 X123.69 Y138.845 E26.97522
G1 X123.163 Y139.256 E27.00856
G1 X122.59 Y139.602 E27.04196
G1 X121.98 Y139.876 E27.07532
G1 X121.341 Y140.076 E27.10872
G1 X120.683 Y140.198 E27.14211
G1 X120.148 Y140.239 E27.16888
G1 X119.67 Y140.25 E27.19273
G1 X90.985 Y140.25 E28.62383
G1 X90.287 Y140.241 E28.65866
G1 X89.62 Y140.192 E28.69203
G1 X88.963 Y140.064 E28.72542
G1 X88.326 Y139.859 E28.75881
G1 X87.718 Y139.579 E28.7922
G1 X87.148 Y139.229 E28.82557
G1 X86.624 Y138.813 E28.85895
G1 X86.153 Y138.338 E28.89232
G1 X85.742 Y137.81 E28.92571
G1 X85.397 Y137.237 E28.95908
G1 X85.123 Y136.627 E28.99244
G1 X84.923 Y135.988 E29.02584
G1 X84.802 Y135.33 E29.05922
G1 X84.761 Y134.782 E29.08664
G1 X84.75 Y134.284 E29.11149
G1 X84.75 Y75.947 E32.02193
G1 X84.759 Y75.282 E32.05511
G1 X84.808 Y74.615 E32.08848
G1 X84.936 Y73.958 E32.12187
G1 X85.141 Y73.322 E32.15521
G1 X85.421 Y72.714 E32.18861
G1 X85.772 Y72.144 E32.222
G1 X86.188 Y71.62 E32.25538
M205 X10 Y10
G0 F6000 X86.168 Y72.278
M205 X8 Y8
G1 F1200 X86.581 Y71.784 E32.28751
G1 X87.052 Y71.344 E32.31966
G1 X87.575 Y70.966 E32.35186
G1 X88.139 Y70.655 E32.38399
G1 X88.738 Y70.417 E32.41615
G1 X89.362 Y70.254 E32.44832
G1 X90.211 Y70.16 E32.49094
G1 X90.677 Y70.149 E32.51419
G1 X119.293 Y70.149 E33.94185
G1 X120.065 Y70.16 E33.98037
G1 X120.708 Y70.209 E34.01254
G1 X121.34 Y70.337 E34.04471
G1 X121.951 Y70.543 E34.07688
G1 X122.532 Y70.822 E34.10904
G1 X123.074 Y71.171 E34.1412
G1 X123.568 Y71.585 E34.17336
G1 X124.008 Y72.057 E34.20555
G1 X124.386 Y72.579 E34.2377
G1 X124.696 Y73.144 E34.26985
G1 X124.934 Y73.743 E34.30201
G1 X125.096 Y74.367 E34.33417
G1 X125.189 Y75.21 E34.37649
G1 X125.2 Y75.672 E34.39954
G1 X125.2 Y133.978 E37.30844
G1 X125.191 Y134.705 E37.34471
G1 X125.143 Y135.348 E37.37688
G1 X125.016 Y135.98 E37.40904
G1 X124.811 Y136.592 E37.44124
G1 X124.533 Y137.173 E37.47338
G1 X124.185 Y137.716 E37.50555
G1 X123.772 Y138.211 E37.53772
G1 X123.301 Y138.651 E37.56987
G1 X122.779 Y139.03 E37.60206
G1 X122.215 Y139.341 E37.63419
G1 X121.616 Y139.58 E37.66636
G1 X120.993 Y139.744 E37.6985
G1 X120.137 Y139.839 E37.74147
G1 X119.67 Y139.85 E37.76478
G1 X90.99 Y139.85 E39.19563
G1 X90.292 Y139.841 E39.23045
G1 X89.649 Y139.792 E39.26263
G1 X89.017 Y139.665 E39.29479
G1 X88.406 Y139.46 E39.32694
G1 X87.825 Y139.182 E39.35907
G1 X87.282 Y138.833 E39.39128
G1 X86.787 Y138.42 E39.42344
G1 X86.347 Y137.949 E39.4556
G1 X85.968 Y137.427 E39.48778
G1 X85.657 Y136.863 E39.51991
G1 X85.419 Y136.264 E39.55207
G1 X85.256 Y135.64 E39.58425
G1 X85.161 Y134.772 E39.62781
G1 X85.15 Y134.284 E39.65216
G1 X85.149 Y75.953 E42.56231
G1 X85.158 Y75.288 E42.59549
G1 X85.207 Y74.645 E42.62766
G1 X85.335 Y74.013 E42.65983
G1 X85.54 Y73.402 E42.69198
G1 X85.819 Y72.821 E42.72414
G1 X86.168 Y72.278 E42.75634
M205 X10 Y10
G1 F1500 E36.75634
G1 F600 Z0.375
;MESH:showtable_case_top v8.3mf
G0 F6000 X119 Y133.65 Z0.375
M205 X8 Y8
;TYPE:WALL-INNER
G1 F600 Z0.3
G1 F1500 E42.75634
G1 F1200 X91.35 Y133.65 E44.13581
G1 X91.349 Y76.349 E46.99456
G1 X119 Y76.349 E48.37408
G1 X119 Y133.65 E51.23284
M205 X10 Y10
G0 F6000 X119.4 Y134.05
M205 X8 Y8
G1 F1200 X90.95 Y134.05 E52.65221
G1 X90.949 Y75.949 E55.55088
G1 X119.4 Y75.949 E56.97031
G1 X119.4 Y134.05 E59.86898
M205 X10 Y10
G0 F6000 X119.8 Y134.45
M205 X8 Y8
;TYPE:WALL-OUTER
G1 F1200 X90.55 Y134.45 E61.32827
G1 X90.549 Y75.549 E64.26685
G1 X119.8 Y75.549 E65.72619
G1 X119.8 Y134.45 E68.66477
M205 X10 Y10
G0 F6000 X119.6 Y134.45
G0 X119.36 Y134.01
G0 X118.61 Y133.26
M205 X8 Y8
;TYPE:SKIN
G1 F1200 X91.74 Y133.26 E70.00532
G1 X91.739 Y76.739 E72.82517
G1 X118.61 Y76.739 E74.16577
G1 X118.61 Y133.26 E76.98561
M205 X10 Y10
G1 F1500 E70.98561
G1 F600 Z0.375
G0 F6000 X92.35 Y133.079 Z0.375
M205 X8 Y8
G1 F600 Z0.3
G1 F1500 E76.98561
G1 F1200 X91.919 Y132.648 E77.01602
M205 X10 Y10
G0 F6000 X91.919 Y132.083
M205 X8 Y8
G1 F1200 X92.915 Y133.079 E77.08629
M205 X10 Y10
G0 F6000 X93.481 Y133.079
M205 X8 Y8
G1 F1200 X91.919 Y131.517 E77.1965
M205 X10 Y10
G0 F6000 X91.919 Y130.951
M205 X8 Y8
G1 F1200 X94.047 Y133.079 E77.34664
M205 X10 Y10
G0 F6000 X94.613 Y133.079
M205 X8 Y8
G1 F1200 X91.919 Y130.386 E77.53668
M205 X10 Y10
G0 F6000 X91.919 Y129.82
M205 X8 Y8
G1 F1200 X95.178 Y133.079 E77.76662
M205 X10 Y10
G0 F6000 X95.744 Y133.079
M205 X8 Y8
G1 F1200 X91.919 Y129.254 E78.0365
M205 X10 Y10
G0 F6000 X91.919 Y128.689
M205 X8 Y8
G1 F1200 X96.31 Y133.079 E78.34627
M205 X10 Y10
G0 F6000 X96.875 Y133.079
M205 X8 Y8
G1 F1200 X91.919 Y128.123 E78.69594
M205 X10 Y10
G0 F6000 X91.919 Y127.557
M205 X8 Y8
G1 F1200 X97.441 Y133.079 E79.08555
M205 X10 Y10
G0 F6000 X98.007 Y133.079
M205 X8 Y8
G1 F1200 X91.919 Y126.992 E79.51506
M205 X10 Y10
G0 F6000 X91.919 Y126.426
M205 X8 Y8
G1 F1200 X98.572 Y133.079 E79.98446
M205 X10 Y10
G0 F6000 X99.138 Y133.079
M205 X8 Y8
G1 F1200 X91.919 Y125.86 E80.4938
M205 X10 Y10
G0 F6000 X91.919 Y125.295
M205 X8 Y8
G1 F1200 X99.704 Y133.079 E81.04304
M205 X10 Y10
G0 F6000 X100.269 Y133.079
M205 X8 Y8
G1 F1200 X91.919 Y124.729 E81.63218
M205 X10 Y10
G0 F6000 X91.919 Y124.163
M205 X8 Y8
G1 F1200 X100.835 Y133.079 E82.26125
M205 X10 Y10
G0 F6000 X101.401 Y133.079
M205 X8 Y8
G1 F1200 X91.919 Y123.598 E82.93022
M205 X10 Y10
G0 F6000 X91.919 Y123.032
M205 X8 Y8
G1 F1200 X101.966 Y133.079 E83.63909
M205 X10 Y10
G0 F6000 X102.532 Y133.079
M205 X8 Y8
G1 F1200 X91.919 Y122.466 E84.38789
M205 X10 Y10
G0 F6000 X91.919 Y121.9
M205 X8 Y8
G1 F1200 X103.098 Y133.079 E85.17663
M205 X10 Y10
G0 F6000 X103.663 Y133.079
M205 X8 Y8
G1 F1200 X91.919 Y121.335 E86.00524
M205 X10 Y10
G0 F6000 X91.919 Y120.769
M205 X8 Y8
G1 F1200 X104.229 Y133.079 E86.87377
M205 X10 Y10
G0 F6000 X104.795 Y133.079
M205 X8 Y8
G1 F1200 X91.919 Y120.203 E87.78224
M205 X10 Y10
G0 F6000 X91.919 Y119.638
M205 X8 Y8
G1 F1200 X105.361 Y133.079 E88.73061
M205 X10 Y10
G0 F6000 X105.926 Y133.079
M205 X8 Y8
G1 F1200 X91.919 Y119.072 E89.71888
M205 X10 Y10
G0 F6000 X91.919 Y118.506
M205 X8 Y8
G1 F1200 X106.492 Y133.079 E90.74709
M205 X10 Y10
G0 F6000 X107.058 Y133.079
M205 X8 Y8
G1 F1200 X91.919 Y117.941 E91.81519
M205 X10 Y10
G0 F6000 X91.919 Y117.375
M205 X8 Y8
G1 F1200 X107.623 Y133.079 E92.92319
M205 X10 Y10
G0 F6000 X108.189 Y133.079
M205 X8 Y8
G1 F1200 X91.919 Y116.809 E94.07113
M205 X10 Y10
G0 F6000 X91.919 Y116.244
M205 X8 Y8
G1 F1200 X108.755 Y133.079 E95.25897
M205 X10 Y10
G0 F6000 X109.32 Y133.079
M205 X8 Y8
G1 F1200 X91.919 Y115.678 E96.4867
M205 X10 Y10
G0 F6000 X91.919 Y115.112
M205 X8 Y8
G1 F1200 X109.886 Y133.079 E97.75437
M205 X10 Y10
G0 F6000 X110.452 Y133.079
M205 X8 Y8
G1 F1200 X91.919 Y114.547 E99.06194
M205 X10 Y10
G0 F6000 X91.918 Y113.98
M205 X8 Y8
G1 F1200 X111.017 Y133.079 E100.40947
M205 X10 Y10
G0 F6000 X111.583 Y133.079
M205 X8 Y8
G1 F1200 X91.918 Y113.414 E101.79695
M205 X10 Y10
G0 F6000 X91.918 Y112.849
M205 X8 Y8
G1 F1200 X112.149 Y133.079 E103.22432
M205 X10 Y10
G0 F6000 X112.714 Y133.079
M205 X8 Y8
G1 F1200 X91.918 Y112.283 E104.69159
M205 X10 Y10
G0 F6000 X91.918 Y111.717
M205 X8 Y8
G1 F1200 X113.28 Y133.079 E106.19879
M205 X10 Y10
G0 F6000 X113.846 Y133.079
M205 X8 Y8
G1 F1200 X91.918 Y111.152 E107.7459
M205 X10 Y10
G0 F6000 X91.918 Y110.586
M205 X8 Y8
G1 F1200 X114.411 Y133.079 E109.3329
M205 X10 Y10
G0 F6000 X114.977 Y133.079
M205 X8 Y8
G1 F1200 X91.918 Y110.02 E110.95983
M205 X10 Y10
G0 F6000 X91.918 Y109.455
M205 X8 Y8
G1 F1200 X115.543 Y133.079 E112.62667
M205 X10 Y10
G0 F6000 X116.109 Y133.079
M205 X8 Y8
G1 F1200 X91.918 Y108.889 E114.33344
M205 X10 Y10
G0 F6000 X91.918 Y108.323
M205 X8 Y8
G1 F1200 X116.674 Y133.079 E116.08011
M205 X10 Y10
G0 F6000 X117.24 Y133.079
M205 X8 Y8
G1 F1200 X91.918 Y107.758 E117.86668
M205 X10 Y10
G0 F6000 X91.918 Y107.192
M205 X8 Y8
G1 F1200 X117.806 Y133.079 E119.69318
M205 X10 Y10
G0 F6000 X118.371 Y133.079
M205 X8 Y8
G1 F1200 X91.918 Y106.626 E121.55958
M205 X10 Y10
G0 F6000 X91.918 Y106.061
M205 X8 Y8
G1 F1200 X118.429 Y132.571 E123.43004
M205 X10 Y10
G0 F6000 X118.429 Y132.006
M205 X8 Y8
G1 F1200 X91.918 Y105.495 E125.30054
M205 X10 Y10
G0 F6000 X91.918 Y104.929
M205 X8 Y8
G1 F1200 X118.429 Y131.44 E127.17103
M205 X10 Y10
G0 F6000 X118.429 Y130.874
M205 X8 Y8
G1 F1200 X91.918 Y104.364 E129.04149
M205 X10 Y10
G0 F6000 X91.918 Y103.798
M205 X8 Y8
G1 F1200 X118.429 Y130.309 E130.91199
M205 X10 Y10
G0 F6000 X118.429 Y129.743
M205 X8 Y8
G1 F1200 X91.918 Y103.232 E132.78248
M205 X10 Y10
G0 F6000 X91.918 Y102.666
M205 X8 Y8
G1 F1200 X118.429 Y129.177 E134.65297
M205 X10 Y10
G0 F6000 X118.429 Y128.612
M205 X8 Y8
G1 F1200 X91.918 Y102.101 E136.52347
M205 X10 Y10
G0 F6000 X91.918 Y101.535
M205 X8 Y8
G1 F1200 X118.429 Y128.046 E138.39396
M205 X10 Y10
G0 F6000 X118.429 Y127.48
M205 X8 Y8
G1 F1200 X91.918 Y100.969 E140.26446
M205 X10 Y10
G0 F6000 X91.918 Y100.404
M205 X8 Y8
G1 F1200 X118.429 Y126.915 E142.13495
M205 X10 Y10
G0 F6000 X118.429 Y126.349
M205 X8 Y8
G1 F1200 X91.918 Y99.838 E144.00544
M205 X10 Y10
G0 F6000 X91.918 Y99.272
M205 X8 Y8
G1 F1200 X118.429 Y125.783 E145.87594
M205 X10 Y10
G0 F6000 X118.429 Y125.218
M205 X8 Y8
G1 F1200 X91.918 Y98.707 E147.74643
M205 X10 Y10
G0 F6000 X91.918 Y98.141
M205 X8 Y8
G1 F1200 X118.429 Y124.652 E149.61693
M205 X10 Y10
G0 F6000 X118.429 Y124.086
M205 X8 Y8
G1 F1200 X91.918 Y97.575 E151.48742
M205 X10 Y10
G0 F6000 X91.918 Y97.01
M205 X8 Y8
G1 F1200 X118.429 Y123.52 E153.35788
M205 X10 Y10
G0 F6000 X118.429 Y122.955
M205 X8 Y8
G1 F1200 X91.918 Y96.444 E155.22837
M205 X10 Y10
G0 F6000 X91.918 Y95.878
M205 X8 Y8
G1 F1200 X118.429 Y122.389 E157.09887
M205 X10 Y10
G0 F6000 X118.429 Y121.823
M205 X8 Y8
